!!!!SEGMENT: pl-stab--3a--001-003_dankowski-adalbert--vespere-pastorales-beatus-vir.krn
!!!cenid: 18xx:3485
!!!COM: Dankowski, Adalbert
!!!COM-rismID: pe30000793
!!!CDT: ~1760-~1836
!!!CNT: Polish
!!!OPR: Vespere Pastorales
!!!OTL: Beatus vir
!!!OMV: 003
!!!PDT: 1804
!!!AGN: Sacred; Vespers
!!!YEC: Copyright 2022 Narodowy Instytut Fryderyka Chopina (https://polishscores.org)
!!!YEM: License CC-BY-4.0 (https://creativecommons.org/licenses/by/4.0)
!!!SMS-siglum: PL-STAb
!!!SMS-shelfmark: 3a
!!!SMS-shelfwork: 001-003 M
!!!SMS-variant:
!!!SMS-altvar:
!!!NIFC-rismSourceID: 301050554
!!!NIFC-rismChildID: 301050554
!!!NIFC-islandoraID: pl-stab:928
!!!URL-pdf-islandora: https://repozytorium.nifc.pl/islandora/object/pl-stab%3A928/datastream/PDF/view
!!!URL-scan: https://polish.musicsources.pl/pl/lokalizacje/galeria/rekopisy/4500 @EN{Scan on Polish Music Sources Website} @PL{Skany w portalu Dziedzictwo Muzyki Polskiej w otwartym dostępie}
!!!IIIF:
!!!ONB-nifc: UWAGA: części Nieszporów: 1. Dixit Dominus, 2. Confitebor, 3. Beatus vir, 4. Laudate pueri, 5. Magnificat, 6. Fecit potentiam, 7. Gloria
!!!AIN: 1 alto 1 bass 1 organ 1 soprn 1 tenor 2 violn
!!!OMD:
!!!OMD-mod: Allegro moderato
!!!key: e
**kern	**fba	**dynam	**kern	**dynam	**kern	**dynam	**kern	**text	**kern	**text	**kern	**text	**kern	**text	**kern	**kern
*	*	*	*group3	*	*group3	*	*group2	*	*group2	*	*group2	*	*group2	*	*group1	*group1
*part9	*	*	*part8	*	*part7	*	*part6	*	*part5	*	*part4	*	*part3	*	*part2	*part1
*staff9	*	*	*staff8	*	*staff7	*	*staff6	*	*staff5	*	*staff4	*	*staff3	*	*staff2	*staff1
*I"Organo	*	*	*I"Violino Secundo	*	*I"Violino Primo	*	*I"Baſso	*	*I"Tenor	*	*I"Alto	*	*I"Canto	*	*I"Cornu Secondo Ex D:	*I"Cornu Primo Ex D.
*	*	*	*mI"Violino II	*	*mI"Violino I	*	*mI"Basso	*	*mI"Tenore	*	*	*	*mI"Soprano	*	*mI"Corno II in D	*mI"Corno I in D
*I'org	*	*	*I'vl 2	*	*I'vl 1	*	*I'B	*	*I'T	*	*I'A	*	*I'S	*	*I'cor 2 in D	*I'cor 1 in D
*Iorgan	*	*	*Ivioln	*	*Ivioln	*	*Ibass	*	*Itenor	*	*Ialto	*	*Isoprn	*	*	*
*ICklav	*	*	*ICstr	*	*ICstr	*	*ICvox	*	*ICvox	*	*ICvox	*	*ICvox	*	*	*
*IGcont	*	*	*IGacmp	*	*IGacmp	*	*IGcoro	*	*IGcoro	*	*IGcoro	*	*IGcoro	*	*	*
*	*	*	*	*	*	*	*	*	*	*	*	*	*	*	*tacet	*tacet
*clefF4	*	*	*clefG2	*	*clefG2	*	*clefF4	*	*clefC4	*	*clefC3	*	*clefC1	*	*clefG2	*clefG2
*	*	*	*	*	*	*	*	*	*mclefGv2	*	*mclefG2	*	*mclefG2	*	*	*
*k[f#]	*	*	*k[f#]	*	*k[f#]	*	*k[f#]	*	*k[f#]	*	*k[f#]	*	*k[f#]	*	*k[f#c#]	*k[f#c#]
*e:	*	*	*e:	*	*e:	*	*e:	*	*e:	*	*e:	*	*e:	*	*e:	*e:
*M2/2	*	*	*M2/2	*	*M2/2	*	*M2/2	*	*M2/2	*	*M2/2	*	*M2/2	*	*M2/2	*M2/2
*met(C|r)	*	*	*met(2)	*	*met(C|r)	*	*met(C|r)	*	*met(C|r)	*	*met(C|r)	*	*met(C|r)	*	*met()	*met()
*mmet(c|)	*	*	*mmet(c|)	*	*met(c|)	*	*mmet(c|)	*	*mmet(c|)	*	*mmet(c|)	*	*mmet(c|)	*	*mmet()	*mmet()
=1	=1	=1	=1	=1	=1	=1	=1	=1	=1	=1	=1	=1	=1	=1	=1	=1
!LO:TX:a:t=Tutti:mod=	!	!	!LO:TX:t=P:problem=metrum Z przekreślone	!	!	!	!	!	!	!	!	!	!	!	!	!
!	!	!LO:MO:mod=!LO&colon;DY&colon;ed=brack	!	!LO:MO:mod=!LO&colon;DY&colon;ed=brack	!	!	!	!	!	!	!	!	!	!	!	!
!LO:TX:t=P:problem=metrum C odwrócone	!	!null	!	!null	!LO:TX:t=P:problem=metrum C odwrócone	!	!LO:TX:t=P:problem=metrum C odwrócone	!	!LO:TX:t=P:problem=metrum C odwrócone	!	!LO:TX:t=P:problem=metrum C odwrócone	!	!LO:TX:t=P:problem=metrum C odwrócone	!	!	!
!LO:TX:a:rj:t=allo moderato:mod=	!	!LO:MO:null:mod=f	!	!LO:MO:null:mod=f	!LO:TX:a:rj:t=allo Moderato:mod=	!LO:DY:a:t=for:mod=%s	!LO:TX:a:rj:t=allo moderato:mod=	!	!LO:TX:a:rj:t=allo mod.:mod=	!	!LO:TX:a:rj:t=allo mod.:mod=	!	!LO:TX:a:rj:t=moderato:mod=	!	!LO:TX:a:t=Beatus Tacet:mod=	!LO:TX:a:t=Beatus Tacet:mod=
4E\|	.	.	4e/	.	4ee\	f	(4.E\	Be-	(4.e\	Be-	(4.e\	Be-	(4.ee\	Be-	1ryy	1ryy
(8E\L	.	.	8e/L	.	8ee\L	.	.	.	.	.	.	.	.	.	.	.
8G\J)	.	.	8g/J	.	8gg\J	.	8G\)	.	8g\)	.	8g\)	.	8gg\)	.	.	.
4BB/|>	.	.	4B/	.	4b\	.	4BB/	-a-	4B\	-a-	4B/	-a-	4b\	-a-	.	.
4D#X\|	.	.	4d#X/	.	4dd#X\	.	4D#X\	-tus	4d#X\	-tus	4d#X\	-tus	4dd#X\	-tus	.	.
=2	=2	=2	=2	=2	=2	=2	=2	=2	=2	=2	=2	=2	=2	=2	=2	=2
!	!	!	!	!	!	!	!	!LO:MO:mod=vir	!	!	!	!	!	!	!	!
4E\|	.	.	4e/	.	4ee\	.	4E\	Vir	4e\	vir	4e\	vir	4ee\	vir	1ryy	1ryy
(8E\L	.	.	8e/L	.	8ee\L	.	8E\L	qui	8e\L	qui	8e\L	qui	8ee\L	qui	.	.
8G\J)	.	.	8g/J	.	8gg\J	.	8G\J	.	8g\J	.	8g\J	.	8gg\J	.	.	.
4BB/|>	.	.	4B/	.	4b\	.	4BB/	ti-	4B\	ti-	4B/	ti-	4b\	ti-	.	.
4D#X\|	.	.	4d#X/	.	4dd#X\	.	4D#X\	-met	4d#X\	-met	4d#X\	-met	4dd#X\	-met	.	.
=3	=3	=3	=3	=3	=3	=3	=3	=3	=3	=3	=3	=3	=3	=3	=3	=3
4E\|	.	.	4e/	.	4ee\	.	4E\	Do-	4e\	Do-	4e\	Do-	4ee\	Do-	1ryy	1ryy
(8E\L	.	.	8f#/L	.	8ff#\L	.	8F#\L	-mi-	8f#\L	-mi-	8f#\L	-mi-	8ff#\L	-mi-	.	.
8G\J)	.	.	8g/J	.	8gg\J	.	8G\J	.	8g\J	.	8g\J	.	8gg\J	.	.	.
4E\|	.	.	4e/	.	4ee\	.	4E\	-num	4e\	-num	4e\	-num	4ee\	-num	.	.
(8G\L	.	.	8g/L	.	8gg\L	.	8G\L	in	8g\L	in	8g\L	in	8gg\L	in	.	.
8A\J)	.	.	8a/J	.	8aa\J	.	8A\J	.	8a\J	.	8a\J	.	8aa\J	.	.	.
=4	=4	=4	=4	=4	=4	=4	=4	=4	=4	=4	=4	=4	=4	=4	=4	=4
4B\|	.	.	4b/	.	4bb\	.	4B\	man-	4b\	man-	4b\	man-	4bb\	man-	1ryy	1ryy
!	!	!	!	!	!	!	!	!LO:MO:mod=.	!	!	!	!	!	!	!	!
(8B\L	.	.	8b/L	.	8bb\L	.	8B\L	-da-	8b\L	.	8b\L	.	8bb\L	.	.	.
8G\J)	.	.	8g/J	.	8gg\J	.	8G\J	.	8g\J	.	8g\J	.	8gg\J	.	.	.
!	!	!	!	!	!	!	!	!LO:MO:null:mod=-da-	!	!	!	!	!LO:LB:g=original	!	!	!
4A\|	.	.	4a/	.	4aa\	.	4A\	.	4a\	-da-	4a\	-da-	4aa\	-da-	.	.
(8A\L	.	.	8a/L	.	8aa\L	.	8A\L	-tis	8a\L	-tis	8a\L	-tis	8aa\L	-tis	.	.
8F#\J)	.	.	8f#/J	.	8ff#\J	.	8F#\J	.	8f#\J	.	8f#\J	.	8ff#\J	.	.	.
!	!	!	!	!	!	!	!LO:LB:g=original	!	!	!	!LO:LB:g=original	!	!	!	!	!
=5	=5	=5	=5	=5	=5	=5	=5	=5	=5	=5	=5	=5	=5	=5	=5	=5
(8E\L	.	.	8e/L	.	8ee\L	.	8E\L	e-	8e\L	e-	8e\L	e-	8ee\L	e-	1ryy	1ryy
8D#X\)	.	.	8d#X/	.	8dd#X\	.	8D#X\	.	8d#X\	.	8d#X\	.	8dd#X\	.	.	.
8C\	.	.	8c/	.	8cc\	.	8C\	.	8c\	.	8c\	.	8cc\	.	.	.
8BB\J	.	.	8B/J	.	8b\J	.	8BB\J	.	8B\J	.	8B\J	.	8b\J	.	.	.
!	!	!	!	!	!	!	!	!LO:MO:mod=-jus	!LO:LB:g=original	!LO:MO:mod=-jus	!	!LO:MO:mod=-jus	!	!LO:MO:mod=-jus	!	!
4E\|	.	.	4e/	.	4ee\	.	4E\	-ius	4e\	-ius	4e\	-ius	4ee\	-ius	.	.
(8F#\L	.	.	8f#/L	.	8ff#\L	.	8F#\L	vo-	8f#\L	vo-	8f#\L	vo-	8ff#\L	vo-	.	.
8G\J)	.	.	8g/J	.	8gg\J	.	8G\J	.	8g\J	.	8g\J	.	8gg\J	.	.	.
!	!	!	!LO:LB:g=original	!	!	!	!	!	!	!	!	!	!	!	!	!
=6	=6	=6	=6	=6	=6	=6	=6	=6	=6	=6	=6	=6	=6	=6	=6	=6
!	!	!	!	!	!	!	!	!	!	!LO:MO:mod=.	!	!LO:MO:mod=.	!	!	!	!
4A\	.	.	4a/	.	4aa\	.	4A\	.	4a\	-let	4a\	-let	4aa\	.	1ryy	1ryy
!	!	!	!	!	!	!	!	!	!	!LO:MO:null:mod=-let	!	!LO:MO:null:mod=-let	!	!	!	!
4F#\	.	.	4f#/	.	4ff#\	.	4F#\	-let	4f#\	.	4f#\	.	4ff#\	-let	.	.
4D#X\	.	.	4d#X/	.	4dd#X\	.	(4D#X/	ni-	4d#X\	ni-	4d#X\	ni-	4dd#X\	ni-	.	.
4BB/	.	.	4B/	.	4b\	.	4BB/)	.	4B\	.	4B\	.	4b\	.	.	.
!LO:LB:g=original	!	!	!	!	!LO:LB:g=original	!	!	!	!	!	!	!	!	!	!	!
=7	=7	=7	=7	=7	=7	=7	=7	=7	=7	=7	=7	=7	=7	=7	=7	=7
!LO:SIC:o=1E	!	!	!	!	!	!	!	!	!	!	!	!	!	!	!	!
[1E	.	.	4e/	.	4ee\	.	4E\	-mis	4e\	-mis	4e\	-mis	4ee\	-mis	1ryy	1ryy
!	!	!	!	!	!	!	!	!	!	!	!	!	!	!LO:MO:mod=po-	!	!
.	.	.	8g/L	.	8gg\L	.	4E\	po-	4B\	po-	4g\	po-	4ee\	Po-	.	.
.	.	.	8a/J	.	8aa\J	.	.	.	.	.	.	.	.	.	.	.
.	.	.	8b/L	.	8bb\L	.	4E\	-tens	4B\	-tens	4g\	-tens	4ee\	-tens	.	.
.	.	.	8a/	.	8aa\	.	.	.	.	.	.	.	.	.	.	.
.	.	.	8b/	.	8bb\	.	4E\	in	4B\	in	4g\	in	4ee\	in	.	.
.	.	.	8g/J	.	8gg\J	.	.	.	.	.	.	.	.	.	.	.
=8	=8	=8	=8	=8	=8	=8	=8	=8	=8	=8	=8	=8	=8	=8	=8	=8
!	!	!	!	!	!	!	!LO:MO:mod=*null:null	!	!LO:MO:mod=*null:null	!	!LO:MO:mod=*null:null	!	!LO:MO:mod=*null:null	!	!	!
*	*	*	*	*	*	*	*2\right	*	*2\right	*	*2\right	*	*2\right	*	*	*
!LO:SIC:o=1E	!	!	!	!	!	!	!	!	!	!	!	!	!	!	!	!
1E_	.	.	4e/	.	4ee\	.	2E\	ter-	2B\	ter-	2g\	ter-	2ee\	ter-	1ryy	1ryy
.	.	.	8f#/L	.	8ff#\L	.	.	.	.	.	.	.	.	.	.	.
.	.	.	8g/J	.	8gg\J	.	.	.	.	.	.	.	.	.	.	.
.	.	.	8e/L	.	8ee\L	.	2E\	-ra	2B\	-ra	2g\	-ra	2ee\	-ra	.	.
!	!	!	!	!	!LO:SIC:v:o=8dd\	!	!	!	!	!	!	!	!	!	!	!
.	.	.	8d#X/	.	8dd#\	.	.	.	.	.	.	.	.	.	.	.
.	.	.	8c/	.	8cc\	.	.	.	.	.	.	.	.	.	.	.
.	.	.	8B/J	.	8b\J	.	.	.	.	.	.	.	.	.	.	.
=9	=9	=9	=9	=9	=9	=9	=9	=9	=9	=9	=9	=9	=9	=9	=9	=9
!LO:SIC:o=1E	!	!	!	!	!	!	!	!	!	!	!	!	!	!	!	!
1E_	.	.	4e/	.	4ee\	.	4E\	e-	4B\	e-	4g\	e-	4ee\	e-	1ryy	1ryy
.	.	.	8g/L	.	8gg\L	.	4E\	-rit	4B\	-rit	4g\	-rit	4ee\	-rit	.	.
.	.	.	8a/J	.	8aa\J	.	.	.	.	.	.	.	.	.	.	.
!	!	!	!	!	!	!	!	!	!	!LO:MO:mod=se-	!	!	!	!	!	!
.	.	.	8b/L	.	8bb\L	.	4E\	se-	4B\	Se-	4g\	se-	4ee\	se-	.	.
.	.	.	8a/	.	8aa\	.	.	.	.	.	.	.	.	.	.	.
.	.	.	8b/	.	8bb\	.	4E\	-men	4B\	-men	4g\	-men	4ee\	-men	.	.
.	.	.	8g/J	.	8gg\J	.	.	.	.	.	.	.	.	.	.	.
!	!	!	!	!	!	!	!	!	!	!	!	!	!LO:PB:g=original	!	!	!
=10	=10	=10	=10	=10	=10	=10	=10	=10	=10	=10	=10	=10	=10	=10	=10	=10
!LO:SIC:o=1E	!	!	!	!	!	!	!	!	!	!	!	!	!	!	!	!
1E]	.	.	4e/	.	4ee\	.	2E\	e-	2B\	e-	2g\	e-	2ee\	e-	1ryy	1ryy
.	.	.	8f#/L	.	8ff#\L	.	.	.	.	.	.	.	.	.	.	.
.	.	.	8g/J	.	8gg\J	.	.	.	.	.	.	.	.	.	.	.
!	!	!	!	!	!	!	!	!LO:MO:mod=-jus	!	!LO:MO:mod=-jus	!	!LO:MO:mod=-jus	!	!LO:MO:mod=-jus	!	!
.	.	.	4e/	.	4ee\	.	2E\	-ius	2B\	-ius	2g\	-ius	2ee\	-ius	.	.
.	.	.	4B/	.	4b\	.	.	.	.	.	.	.	.	.	.	.
=11	=11	=11	=11	=11	=11	=11	=11	=11	=11	=11	=11	=11	=11	=11	=11	=11
!	!	!	!	!	!	!	!	!	!	!	!	!LO:MO:mod=ge-	!	!	!	!
4E\	.	.	8e/L	.	8ee\L	.	4E\	ge-	4B\	ge-	4g\	Ge-	4ee\	ge-	1ryy	1ryy
.	.	.	8f#/	.	8ff#\	.	.	.	.	.	.	.	.	.	.	.
4E\	.	.	8g/	.	8gg\	.	4E\	-ne-	4B\	-ne-	4g\	-ne-	4ee\	-ne-	.	.
.	.	.	8e/J	.	8ee\J	.	.	.	.	.	.	.	.	.	.	.
!	!	!	!	!	!	!	!	!	!	!	!LO:LB:g=original	!	!	!	!	!
4D#X\	6 5	.	4b/	.	4bb\	.	4D#X\	-ra-	4B\	-ra-	4a\	-ra-	4ff#\	-ra-	.	.
4D#\	.	.	8b/L	.	8bb\L	.	4D#\	-ti-	4B\	-ti-	4a\	-ti-	4ff#\	-ti-	.	.
.	.	.	8a/J	.	8aa\J	.	.	.	.	.	.	.	.	.	.	.
!	!	!	!	!	!	!	!LO:LB:g=original	!	!	!	!	!	!	!	!	!
=12	=12	=12	=12	=12	=12	=12	=12	=12	=12	=12	=12	=12	=12	=12	=12	=12
4E\	.	.	8g/L	.	8gg\L	.	4E\	-o	4B\	-o	4g\	-o	4ee\	-o	1ryy	1ryy
.	.	.	8a/	.	8aa\	.	.	.	.	.	.	.	.	.	.	.
!	!	!	!	!	!	!	!	!	!	!	!	!LO:MO:mod=rec-	!	!LO:MO:mod=rec-	!	!
4E\	.	.	8b/	.	8bb\	.	4E\	rec-	4B\	rec-	4g\	re-	4ee\	re-	.	.
.	.	.	8g/J	.	8gg\J	.	.	.	.	.	.	.	.	.	.	.
!	!	!	!	!	!	!	!	!	!	!	!	!LO:MO:mod=-to-	!	!LO:MO:mod=-to-	!	!
4G\	6	.	8e/L	.	8ee\L	.	4G\	-to-	4B\	-to-	4g\	-cto-	4ee\	-cto-	.	.
!	!	!	!	!	!LO:SIC:v:o=8dd\	!	!	!	!	!	!	!	!	!	!	!
.	.	.	8d#X/	.	8dd#\	.	.	.	.	.	.	.	.	.	.	.
!	!	!	!	!	!	!	!	!	!	!LO:MO:mod=-rum	!	!	!	!	!	!
4G\	.	.	8c/	.	8cc\	.	4G\	-rum	4B\	-ru(m)	4g\	-rum	4ee\	-rum	.	.
.	.	.	8B/J	.	8b\J	.	.	.	.	.	.	.	.	.	.	.
!	!	!	!LO:LB:g=original	!	!LO:LB:g=original	!	!	!	!LO:LB:g=original	!	!	!	!	!	!	!
=13	=13	=13	=13	=13	=13	=13	=13	=13	=13	=13	=13	=13	=13	=13	=13	=13
4A\	6	.	4c/	.	8cc\L	.	2A\	be-	2c\	be-	2a\	be-	2ff#\	be-	1ryy	1ryy
.	.	.	.	.	8ff#\	.	.	.	.	.	.	.	.	.	.	.
4A\	.	.	4a/	.	8aa\	.	.	.	.	.	.	.	.	.	.	.
.	.	.	.	.	8ff#\J	.	.	.	.	.	.	.	.	.	.	.
4B\	4	.	4g/	.	8ff#\L	.	4B\	-ne-	4B\	-ne-	4g\	-ne-	4ee\	-ne-	.	.
.	.	.	.	.	8ee\	.	.	.	.	.	.	.	.	.	.	.
4BB/	#	.	4f#/	.	8ee\	.	4BB/	-di-	4B\	-di-	4f#\	-di-	4dd#X\	-di-	.	.
.	.	.	.	.	8dd#X\J	.	.	.	.	.	.	.	.	.	.	.
=14	=14	=14	=14	=14	=14	=14	=14	=14	=14	=14	=14	=14	=14	=14	=14	=14
4E\	.	.	8g/L	.	8ee\L	.	2E\	-ce-	2B\	-ce-	2g\	-ce-	2ee\	-ce-	1ryy	1ryy
.	.	.	8a/	.	8ff#\	.	.	.	.	.	.	.	.	.	.	.
4EE/	.	.	8b/	.	8gg\	.	.	.	.	.	.	.	.	.	.	.
.	.	.	8a/J	.	8ff#\J	.	.	.	.	.	.	.	.	.	.	.
4E\	.	.	4g/	.	4ee\	.	4E\	-tur	4B\	-tur	4g\	-tur	4ee\	-tur	.	.
4r	.	.	8b/L	.	8bb\L	.	4r	.	4r	.	4r	.	4r	.	.	.
.	.	.	8a/J	.	8aa\J	.	.	.	.	.	.	.	.	.	.	.
=15	=15	=15	=15	=15	=15	=15	=15	=15	=15	=15	=15	=15	=15	=15	=15	=15
!	!	!	!	!	!	!	!	!LO:MO:mod=glo-	!	!	!	!LO:MO:mod=glo-	!	!	!	!
4E\	#_	.	8g#X/L	.	8gg#X\L	.	4E\	Glo-	4e\	glo-	4g#X\	Glo-	4b\	glo-	1ryy	1ryy
.	.	.	8a/	.	8aa\	.	.	.	.	.	.	.	.	.	.	.
4E\	.	.	8b/	.	8bb\	.	4E\	-ri-	4e\	-ri-	4g#\	-ri-	4b\	-ri-	.	.
.	X	.	8g#/J	.	8gg#\J	.	.	.	.	.	.	.	.	.	.	.
!LO:SIC:o=4Dn\	!	!	!	!	!	!	!LO:SIC:o=4Dn\	!	!	!	!	!	!	!	!	!
4D	.	.	4e/	.	4ee\	.	4D	-a	4e\	-a	4g#\	-a	4b\	-a	.	.
4D\	.	.	8f#/L	.	8ff#\L	.	4D\	et	4e\	et	4g#\	et	4b\	et	.	.
.	.	.	8g#/J	.	8gg#\J	.	.	.	.	.	.	.	.	.	.	.
!	!	!	!	!	!	!	!	!	!	!	!	!	!LO:LB:g=original	!	!	!
=16	=16	=16	=16	=16	=16	=16	=16	=16	=16	=16	=16	=16	=16	=16	=16	=16
4C/	6	.	8a/L	.	8aa\L	.	2C/	di-	2e\	di-	2a\	di-	2cc\	di-	1ryy	1ryy
!	!	!	!LO:SIC:v:o=8g/	!	!LO:SIC:v:o=8gg\	!	!	!	!	!	!	!	!	!	!	!
.	.	.	8g#/	.	8gg#\	.	.	.	.	.	.	.	.	.	.	.
4C/	.	.	8a/	.	8aa\	.	.	.	.	.	.	.	.	.	.	.
.	.	.	8b/J	.	8bb\J	.	.	.	.	.	.	.	.	.	.	.
4C#X/	n5r	.	8cc/L	.	8ccc\L	.	4C#X/	-vi-	4e\	-vi-	4gn\	-vi-	4b\	-vi-	.	.
.	.	.	8b/	.	8bb\	.	.	.	.	.	.	.	.	.	.	.
4C#/	.	.	8a/	.	8aa\	.	4C#/	-ti-	4e\	-ti-	4g\	-ti-	4b\	-ti-	.	.
.	.	.	8gn/J	.	8ggn\J	.	.	.	.	.	.	.	.	.	.	.
=17	=17	=17	=17	=17	=17	=17	=17	=17	=17	=17	=17	=17	=17	=17	=17	=17
4D\	3_	.	8f#/L	.	8ff#\L	.	4D/	-ae	4d\	-ae	4f#\	-ae	4a\	-ae	1ryy	1ryy
.	.	.	8g/	.	8gg\	.	.	.	.	.	.	.	.	.	.	.
4D\	.	.	8a/	.	8aa\	.	4D/	in	4d\	in	4f#\	in	4a\	in	.	.
.	X	.	8f#/J	.	8ff#\J	.	.	.	.	.	.	.	.	.	.	.
!	!	!	!	!	!	!	!	!LO:MO:mod=do-	!	!	!LO:LB:g=original	!	!	!LO:MO:mod=do-	!	!
4Cn/	.	.	4d/	.	4dd\	.	4Cn/	Do-	4d\	do-	4f#\	do-	4a\	Do-	.	.
4C/	.	.	8e/L	.	8ee\L	.	4C/	-mo	4d\	-mo	4f#\	-mo	4a\	-mo	.	.
.	.	.	8f#/J	.	8ff#\J	.	.	.	.	.	.	.	.	.	.	.
!LO:LB:g=original	!	!	!	!	!	!	!	!	!	!	!	!	!	!	!	!
=18	=18	=18	=18	=18	=18	=18	=18	=18	=18	=18	=18	=18	=18	=18	=18	=18
4BB/	6_	.	8g/L	.	8gg\L	.	2BB/	e-	2d\	e-	2g\	e-	2b\	e-	1ryy	1ryy
.	.	.	8f#/	.	8ff#\	.	.	.	.	.	.	.	.	.	.	.
4BB/	.	.	8g/	.	8gg\	.	.	.	.	.	.	.	.	.	.	.
.	.	.	8a/J	.	8aa\J	.	.	.	.	.	.	.	.	.	.	.
!	!	!	!	!	!	!	!	!LO:MO:mod=-jus	!	!LO:MO:mod=-jus	!	!LO:MO:mod=-jus	!	!LO:MO:mod=-jus	!	!
4BB/	.	.	8b/L	.	8bb\L	.	4BB/	-ius	4d\	-ius	4g\	-ius	4dd\	-ius	.	.
.	.	.	8a/	.	8aa\	.	.	.	.	.	.	.	.	.	.	.
4BB/	.	.	8g/	.	8gg\	.	4BB/	et	4d\	et	4g\	et	4dd\	et	.	.
.	X	.	8fn/J	.	8ffn\J	.	.	.	.	.	.	.	.	.	.	.
!	!	!	!	!	!LO:LB:g=original	!	!LO:LB:g=original	!	!	!	!	!	!	!	!	!
=19	=19	=19	=19	=19	=19	=19	=19	=19	=19	=19	=19	=19	=19	=19	=19	=19
!	!	!	!	!	!	!	!	!LO:MO:mod=jus-	!	!LO:MO:mod=jus-	!	!LO:MO:mod=jus-	!	!LO:MO:mod=jus-	!	!
4C/	6	.	4e/	.	4ee\	.	2C/	Juſ-	2d\	Jus-	2a\	Juſ-	2ee\	Jus-	1ryy	1ryy
4C/	.	.	8e/L	.	8ee\L	.	.	.	.	.	.	.	.	.	.	.
.	.	.	8a/J	.	8aa\J	.	.	.	.	.	.	.	.	.	.	.
4D\	3_	.	8f#X/L	.	8ff#X\L	.	4D\	-ti-	4d\	-ti-	4a\	-ti-	4ff#\	-ti-	.	.
.	.	.	8e/	.	8ee\	.	.	.	.	.	.	.	.	.	.	.
4D\	.	.	8f#/	.	8ff#\	.	4D\	-ti-	4d\	-ti-	4a\	-ti-	4ff#\	-ti-	.	.
.	X	.	8d/J	.	8dd\J	.	.	.	.	.	.	.	.	.	.	.
!	!	!	!LO:LB:g=original	!	!	!	!	!	!LO:LB:g=original	!	!	!	!	!	!	!
=20	=20	=20	=20	=20	=20	=20	=20	=20	=20	=20	=20	=20	=20	=20	=20	=20
4G\	.	.	8g/L	.	8gg\L	.	2G\	-a	2d\	-a	2b\	-a	2gg\	-a	1ryy	1ryy
.	.	.	8a/	.	8aa\	.	.	.	.	.	.	.	.	.	.	.
4G\	.	.	8b/	.	8bb\	.	.	.	.	.	.	.	.	.	.	.
.	.	.	8a/J	.	8aa\J	.	.	.	.	.	.	.	.	.	.	.
4BB/	6	.	4g/	.	4gg\	.	4BB/	e-	4d\	e-	4b\	e-	4dd\	e-	.	.
!	!	!	!	!	!	!	!	!LO:MO:mod=-jus	!	!LO:MO:mod=-jus	!	!LO:MO:mod=-jus	!	!LO:MO:mod=-jus	!	!
4BB/	.	.	8g/L	.	8gg\L	.	4BB/	-ius	4d\	-ius	4b\	-ius	4dd\	-ius	.	.
.	.	.	8fn/J	.	8ffn\J	.	.	.	.	.	.	.	.	.	.	.
=21	=21	=21	=21	=21	=21	=21	=21	=21	=21	=21	=21	=21	=21	=21	=21	=21
4C/	6	.	4e/	.	4ee\	.	2C/	ma-	2e\	ma-	2a\	ma-	2ee\	ma-	1ryy	1ryy
4C/	.	.	8e/L	.	8ee\L	.	.	.	.	.	.	.	.	.	.	.
.	.	.	8a/J	.	8aa\J	.	.	.	.	.	.	.	.	.	.	.
4D\	3	.	8f#X/L	.	8ff#X\L	.	4D\	-net	4d\	-net	4a\	-net	4ff#\	-net	.	.
.	.	.	8e/	.	8ee\	.	.	.	.	.	.	.	.	.	.	.
4D\	.	.	8f#/	.	8ff#\	.	4D\	in	4d\	in	4a\	in	4ff#\	in	.	.
.	.	.	8d/J	.	8dd\J	.	.	.	.	.	.	.	.	.	.	.
!	!	!	!	!	!	!	!	!	!	!	!	!	!LO:LB:g=original	!	!	!
=22	=22	=22	=22	=22	=22	=22	=22	=22	=22	=22	=22	=22	=22	=22	=22	=22
!	!	!	!	!	!	!	!	!LO:MO:mod=sae-	!	!LO:MO:mod=sae-	!	!LO:MO:mod=sae-	!	!LO:MO:mod=sae-	!	!
4G\	.	.	8g/L	.	8gg\L	.	2G\	Sae-	2d\	Se-	2b\	Sae-	2gg\	Sae-	1ryy	1ryy
.	.	.	8a/	.	8aa\	.	.	.	.	.	.	.	.	.	.	.
4G\	.	.	8b/	.	8bb\	.	.	.	.	.	.	.	.	.	.	.
.	.	.	8a/J	.	8aa\J	.	.	.	.	.	.	.	.	.	.	.
4BB/	6	.	4g/	.	4gg\	.	4B\	-cu-	4d\	-cu-	4b\	-cu-	4dd\	-cu-	.	.
4BB/	.	.	4dd\	.	8gg\L	.	4B\	-lum	4d\	-lum	4b\	-lum	4dd\	-lum	.	.
.	.	.	.	.	8ffn\J	.	.	.	.	.	.	.	.	.	.	.
=23	=23	=23	=23	=23	=23	=23	=23	=23	=23	=23	=23	=23	=23	=23	=23	=23
!	!	!	!	!	!	!	!	!LO:MO:mod=sae-	!	!LO:MO:mod=sae-	!	!LO:MO:mod=sae-	!	!LO:MO:mod=sae-	!	!
4C/	6	.	4cc\	.	8ee\L	.	2c\	Sae-	2e\	Sae-	2a\	Sae-	2cc\	Sae-	1ryy	1ryy
.	.	.	.	.	8aa\	.	.	.	.	.	.	.	.	.	.	.
4C/	.	.	8ee\L	.	8ccc\	.	.	.	.	.	.	.	.	.	.	.
.	.	.	8cc\J	.	8aa\J	.	.	.	.	.	.	.	.	.	.	.
!	!	!	!	!	!	!	!	!	!	!	!	!	!	!LO:MO:mod=.	!	!
4D/	4	.	8cc\L	.	8aa\L	.	4d\	.	2d\	-cu-	4g\	.	4b\	-cu-	.	.
.	.	.	8b\	.	8gg\	.	.	.	.	.	.	.	.	.	.	.
!	!	!	!	!	!	!	!	!	!	!	!	!	!	!LO:MO:null:mod=-cu-	!	!
4DD/	3	.	8b\	.	8gg\	.	4D\	-cu-	.	.	4f#\	-cu-	4a\	.	.	.
.	.	.	8b\J	.	8ff#X\J	.	.	.	.	.	.	.	.	.	.	.
!	!	!	!	!	!	!	!	!	!	!	!LO:LB:g=original	!	!	!	!	!
=24	=24	=24	=24	=24	=24	=24	=24	=24	=24	=24	=24	=24	=24	=24	=24	=24
!	!	!	!LO:SIC:o=1d 1B	!	!	!	!	!LO:MO:mod=-li.	!	!LO:MO:mod=-li.	!	!LO:MO:mod=-li.	!	!LO:MO:mod=-li.	!	!
[1GG	.	.	[1d [1B	.	8gg\L	.	2G\	-li	2d\	-li	2g\	-li	2b\	-li	1ryy	1ryy
.	.	.	.	.	8ff#\	.	.	.	.	.	.	.	.	.	.	.
.	.	.	.	.	8gg\	.	.	.	.	.	.	.	.	.	.	.
.	.	.	.	.	8bb\J	.	.	.	.	.	.	.	.	.	.	.
!	!	!	!	!	!LO:LB:g=original	!	!	!	!	!	!	!	!	!	!	!
.	.	.	.	.	8gg\L	.	2r	.	2r	.	2r	.	2r	.	.	.
.	.	.	.	.	8ff#\	.	.	.	.	.	.	.	.	.	.	.
.	.	.	.	.	8ee\	.	.	.	.	.	.	.	.	.	.	.
.	.	.	.	.	8dd\J	.	.	.	.	.	.	.	.	.	.	.
=25	=25	=25	=25	=25	=25	=25	=25	=25	=25	=25	=25	=25	=25	=25	=25	=25
!	!	!	!LO:SIC:o=1d 1B	!	!	!	!	!	!	!	!	!	!	!	!	!
1GG_	.	.	1d_ 1B_	.	8gg\L	.	0r	.	00r	.	00r	.	00r	.	1ryy	1ryy
.	.	.	.	.	8ff#\	.	.	.	.	.	.	.	.	.	.	.
.	.	.	.	.	8gg\	.	.	.	.	.	.	.	.	.	.	.
.	.	.	.	.	8aa\J	.	.	.	.	.	.	.	.	.	.	.
.	.	.	.	.	4bb\	.	.	.	.	.	.	.	.	.	.	.
.	.	.	.	.	8bb\L	.	.	.	.	.	.	.	.	.	.	.
.	.	.	.	.	8aa\J	.	.	.	.	.	.	.	.	.	.	.
=26	=26	=26	=26	=26	=26	=26	=26	=26	=26	=26	=26	=26	=26	=26	=26	=26
!	!	!	!LO:SIC:o=1d 1B	!	!	!	!	!	!	!	!	!	!	!	!	!
1GG_	.	.	1d_ 1B_	.	8gg\L	.	.	.	.	.	.	.	.	.	1ryy	1ryy
.	.	.	.	.	8ff#\	.	.	.	.	.	.	.	.	.	.	.
.	.	.	.	.	8gg\	.	.	.	.	.	.	.	.	.	.	.
.	.	.	.	.	8bb\J	.	.	.	.	.	.	.	.	.	.	.
.	.	.	.	.	8gg\L	.	.	.	.	.	.	.	.	.	.	.
.	.	.	.	.	8ff#\	.	.	.	.	.	.	.	.	.	.	.
.	.	.	.	.	8ee\	.	.	.	.	.	.	.	.	.	.	.
.	.	.	.	.	8dd\J	.	.	.	.	.	.	.	.	.	.	.
=27	=27	=27	=27	=27	=27	=27	=27	=27	=27	=27	=27	=27	=27	=27	=27	=27
!	!	!	!LO:SIC:o=1d 1B	!	!	!	!	!	!	!	!	!	!	!	!	!
1GG]	.	.	1d] 1B]	.	4gg\	.	2r	.	.	.	.	.	.	.	1ryy	1ryy
!	!	!	!	!	!	!	!LO:TX:a:t=Solo:mod=	!	!	!	!	!	!	!	!	!
.	.	.	.	.	8aa\L	.	.	.	.	.	.	.	.	.	.	.
.	.	.	.	.	8bb\J	.	.	.	.	.	.	.	.	.	.	.
.	.	.	.	.	4gg\	.	4r	.	.	.	.	.	.	.	.	.
!	!	!	!	!	!	!	!LO:TX:a:i:t= :mod=Solo	!	!	!	!	!	!	!	!	!
.	.	.	.	.	4dd\	.	4D\	Ex-	.	.	.	.	.	.	.	.
!	!	!	!	!	!	!	!LO:LB:g=original	!	!	!	!	!	!	!	!	!
=28	=28	=28	=28	=28	=28	=28	=28	=28	=28	=28	=28	=28	=28	=28	=28	=28
!	!	!	!	!LO:MO:mod=!LO&colon;DY&colon;ed=brack	!	!	!	!	!	!	!	!	!	!	!	!
!	!	!	!	!null	!	!	!	!	!	!	!	!	!	!	!	!
!LO:TX:a:rj:t=Solo:mod=	!	!LO:DY:a:t=p.:mod=%s	!	!LO:MO:null:mod=p	!	!LO:DY:a:rj:t=p.:mod=%s	!	!	!	!	!	!	!	!	!	!
4G\	.	p	4b\	.	4dd\	p	4G\	-or-	.	.	.	.	.	.	1ryy	1ryy
4G\	.	.	4b\	.	4dd\	.	8G\L	-tum	.	.	.	.	.	.	.	.
.	.	.	.	.	.	.	8B\J	.	.	.	.	.	.	.	.	.
4F#\	6 3	.	4a\	.	4dd\	.	4.d\	est	.	.	.	.	.	.	.	.
4F#\	.	.	4a\	.	4dd\	.	.	.	.	.	.	.	.	.	.	.
.	.	.	.	.	.	.	8c\	in	.	.	.	.	.	.	.	.
!LO:LB:g=original	!	!	!	!	!	!	!	!	!	!	!	!	!	!	!	!
=29	=29	=29	=29	=29	=29	=29	=29	=29	=29	=29	=29	=29	=29	=29	=29	=29
4G\	.	.	4b\	.	4dd\	.	8B\L	te-	00r	.	00r	.	00r	.	1ryy	1ryy
.	.	.	.	.	.	.	8A\J	.	.	.	.	.	.	.	.	.
4G\	.	.	4b\	.	4dd\	.	8B\L	-ne-	.	.	.	.	.	.	.	.
.	.	.	.	.	.	.	8c\J	.	.	.	.	.	.	.	.	.
4F#\	6 5	.	4a\	.	4dd\	.	4A\	-bris	.	.	.	.	.	.	.	.
4F#\	.	.	4a\	.	4dd\	.	4D\	lu-	.	.	.	.	.	.	.	.
!	!	!	!LO:PB:g=original	!	!	!	!	!	!	!	!	!	!	!	!	!
=30	=30	=30	=30	=30	=30	=30	=30	=30	=30	=30	=30	=30	=30	=30	=30	=30
4G\	.	.	4b\	.	4dd\	.	8G\L	.	.	.	.	.	.	.	1ryy	1ryy
.	.	.	.	.	.	.	8A\	.	.	.	.	.	.	.	.	.
4G\	.	.	4b\	.	4dd\	.	8B\	.	.	.	.	.	.	.	.	.
.	.	.	.	.	.	.	8c\J	.	.	.	.	.	.	.	.	.
4F#\	6_ 5_	.	4a\	.	4dd\	.	8d\L	.	.	.	.	.	.	.	.	.
.	.	.	.	.	.	.	8e\J	.	.	.	.	.	.	.	.	.
4F#\	.	.	8a\L	.	4dd\	.	8d\L	-men	.	.	.	.	.	.	.	.
.	X X	.	8a\J	.	.	.	8c\J	.	.	.	.	.	.	.	.	.
!	!	!	!	!	!LO:LB:g=original	!	!	!	!	!	!	!	!	!	!	!
=31	=31	=31	=31	=31	=31	=31	=31	=31	=31	=31	=31	=31	=31	=31	=31	=31
!	!	!	!	!	!	!	!LO:SIC:o=(4B\	!	!	!	!	!	!	!	!	!
4G\	.	.	4b\	.	4dd\	.	4B	re-	.	.	.	.	.	.	1ryy	1ryy
!	!	!	!	!	!	!	!LO:SIC:o=8c\L)	!	!	!	!	!	!	!	!	!
4G\	.	.	4b\	.	4dd\	.	8cL	.	.	.	.	.	.	.	.	.
.	.	.	.	.	.	.	8d\J	.	.	.	.	.	.	.	.	.
4GG/	.	.	4b\	.	4dd\	.	4B\	-ctis	.	.	.	.	.	.	.	.
4GG/	.	.	4b\	.	4dd\	.	4G\	mi-	.	.	.	.	.	.	.	.
=32	=32	=32	=32	=32	=32	=32	=32	=32	=32	=32	=32	=32	=32	=32	=32	=32
4C/	6_	.	4a/	.	4cc\	.	8A\L	-se-	.	.	.	.	.	.	1ryy	1ryy
.	.	.	.	.	.	.	8B\J	.	.	.	.	.	.	.	.	.
4C/	.	.	4a/	.	4cc\	.	8c\L	-ri-	.	.	.	.	.	.	.	.
.	.	.	.	.	.	.	8B\J	.	.	.	.	.	.	.	.	.
!	!	!	!LO:SIC:o=4b/	!	!	!	!LO:LB:g=original	!	!	!	!	!	!	!	!	!
4C/	.	.	4a	.	4cc\	.	4A\	-cors	.	.	.	.	.	.	.	.
4C#X/	5	.	4g/	.	4b\	.	4G\	et	.	.	.	.	.	.	.	.
=33	=33	=33	=33	=33	=33	=33	=33	=33	=33	=33	=33	=33	=33	=33	=33	=33
4D/	7_	.	2f#/	.	2a 2d/	.	4F#\	mi-	00r	.	0r	.	00r	.	1ryy	1ryy
4Cn/	.	.	.	.	.	.	8F#\L	-se-	.	.	.	.	.	.	.	.
.	.	.	.	.	.	.	8A\J	.	.	.	.	.	.	.	.	.
4BB/	6_	.	2g/	.	2b 2d/	.	8G\L	-ra-	.	.	.	.	.	.	.	.
.	.	.	.	.	.	.	8F#\	.	.	.	.	.	.	.	.	.
4BB/	.	.	.	.	.	.	8E\	.	.	.	.	.	.	.	.	.
.	X	.	.	.	.	.	8D\J	.	.	.	.	.	.	.	.	.
=34	=34	=34	=34	=34	=34	=34	=34	=34	=34	=34	=34	=34	=34	=34	=34	=34
4C/	6	.	4a/	.	4cc\	.	8E\L	-tor	.	.	.	.	.	.	1ryy	1ryy
.	.	.	.	.	.	.	8A\J	.	.	.	.	.	.	.	.	.
4C/	.	.	4a/	.	8ee\L	.	8c\L	et	.	.	.	.	.	.	.	.
.	.	.	.	.	8cc\J	.	8A\J	.	.	.	.	.	.	.	.	.
!	!	!	!	!	!	!	!	!LO:MO:mod=jus-	!	!	!	!	!	!	!	!
4D/	4	.	4g/	.	4b\	.	4G\	Jus-	.	.	.	.	.	.	.	.
4DD/	3	.	4f#/	.	4a\	.	4F#\	.	.	.	.	.	.	.	.	.
=35	=35	=35	=35	=35	=35	=35	=35	=35	=35	=35	=35	=35	=35	=35	=35	=35
!	!	!	!	!	!	!	!	!	!	!	!LO:TX:a:t=Solo:mod=	!	!	!	!	!
4GG/	.	.	4d 4B/	.	4b\	.	4G\	-tus	.	.	4r	.	.	.	1ryy	1ryy
!	!	!	!	!	!	!	!	!	!	!	!LO:TX:a:i:t= :mod=Solo	!LO:MO:mod=in	!	!	!	!
4G\	.	.	4d 4B/	.	8g/L	.	4r	.	.	.	8g\L	In	.	.	.	.
!	!	!	!	!	!	!	!	!	!	!	!LO:SIC:o=(8b\J	!	!	!	!	!
.	.	.	.	.	8b/J	.	.	.	.	.	8bJ	.	.	.	.	.
!	!	!	!	!	!	!	!	!	!	!	!LO:SIC:o=4a\)	!	!	!	!	!
4F#\	6	.	4d 4A/	.	4a/	.	2r	.	.	.	4a	.	.	.	.	.
4D\	.	.	4d 4A/	.	8a/L	.	.	.	.	.	8a\L	me-	.	.	.	.
.	.	.	.	.	8f#/J	.	.	.	.	.	8f#\J	.	.	.	.	.
=36	=36	=36	=36	=36	=36	=36	=36	=36	=36	=36	=36	=36	=36	=36	=36	=36
4G\	.	.	4d 4B/	.	8g/L	.	00r	.	.	.	8g\L	-mo-	.	.	1ryy	1ryy
.	.	.	.	.	8a/	.	.	.	.	.	8a\J	.	.	.	.	.
4G\	.	.	4d 4B/	.	8b/	.	.	.	.	.	8b\L	-ri-	.	.	.	.
.	.	.	.	.	8cc/J	.	.	.	.	.	8cc\J	.	.	.	.	.
4G\	.	.	4d 4B/	.	4dd\	.	.	.	.	.	4dd\	-a	.	.	.	.
4G\	.	.	4d 4B/	.	8dd\L	.	.	.	.	.	8dd\L	ae-	.	.	.	.
.	.	.	.	.	8b\J	.	.	.	.	.	8b\J	.	.	.	.	.
=37	=37	=37	=37	=37	=37	=37	=37	=37	=37	=37	=37	=37	=37	=37	=37	=37
4GG/	.	.	4d 4B/	.	4g/	.	.	.	00r	.	4g\	-ter-	00r	.	1ryy	1ryy
4G\	.	.	4d 4B/	.	8g/L	.	.	.	.	.	8g\L	-na	.	.	.	.
.	.	.	.	.	8b/J	.	.	.	.	.	8b\J	.	.	.	.	.
4F#\	6	.	4d 4A/	.	4a/	.	.	.	.	.	4a\	e-	.	.	.	.
4D\	.	.	4d 4A/	.	8a/L	.	.	.	.	.	8a\L	-rit	.	.	.	.
.	.	.	.	.	8f#/J	.	.	.	.	.	8f#\J	.	.	.	.	.
!LO:LB:g=original	!	!	!	!	!LO:LB:g=original	!	!	!	!	!	!LO:PB:g=original	!	!	!	!	!
=38	=38	=38	=38	=38	=38	=38	=38	=38	=38	=38	=38	=38	=38	=38	=38	=38
!	!	!	!	!	!	!	!	!	!	!	!	!LO:MO:mod=jus-	!	!	!	!
4G\	.	.	4d 4B/	.	4g/	.	.	.	.	.	4g\	Juſ-	.	.	1ryy	1ryy
4G\	.	.	4d 4B/	.	4g/	.	.	.	.	.	4g\	-tus	.	.	.	.
4B\	6	.	4d 4B/	.	8dd/L	.	.	.	.	.	8dd\L	ab	.	.	.	.
.	.	.	.	.	8b/	.	.	.	.	.	8b\J	.	.	.	.	.
4B\	.	.	4d 4B/	.	8a/	.	.	.	.	.	8a\L	au-	.	.	.	.
.	.	.	.	.	8g/J	.	.	.	.	.	8g\J	.	.	.	.	.
!	!	!	!LO:LB:g=original	!	!	!	!	!	!	!	!	!	!	!	!	!
=39	=39	=39	=39	=39	=39	=39	=39	=39	=39	=39	=39	=39	=39	=39	=39	=39
4d\	3_	.	4d 4A/	.	4f#/	.	.	.	.	.	4f#\	-di-	.	.	1ryy	1ryy
4c\	.	.	4d 4A/	.	8f#/L	.	.	.	.	.	8f#\L	-ti-	.	.	.	.
.	.	.	.	.	8a/J	.	.	.	.	.	8a\J	.	.	.	.	.
4B\	6	.	4d 4B/	.	4g/	.	.	.	.	.	4g\	-o-	.	.	.	.
4G\	.	.	4d 4B/	.	8g/L	.	.	.	.	.	8g\L	-ne	.	.	.	.
.	.	.	.	.	8b/J	.	.	.	.	.	8b\J	.	.	.	.	.
=40	=40	=40	=40	=40	=40	=40	=40	=40	=40	=40	=40	=40	=40	=40	=40	=40
4F#\	6 5	.	4d 4A/	.	8a\L	.	00r	.	.	.	8a\L	ma-	.	.	1ryy	1ryy
.	.	.	.	.	8b\	.	.	.	.	.	8b\	.	.	.	.	.
4F#\	.	.	4d 4A/	.	8cc\	.	.	.	.	.	8cc\	.	.	.	.	.
.	.	.	.	.	8dd\J	.	.	.	.	.	8dd\J	.	.	.	.	.
4G\	.	.	4d 4B/	.	4b/	.	.	.	.	.	4b\	.	.	.	.	.
4B\	6	.	4d 4B/	.	8a/L	.	.	.	.	.	8a\L	-la	.	.	.	.
.	.	.	.	.	8g/J	.	.	.	.	.	8g\J	.	.	.	.	.
=41	=41	=41	=41	=41	=41	=41	=41	=41	=41	=41	=41	=41	=41	=41	=41	=41
4c\	6	.	4e/	.	8a/L	.	.	.	00r	.	8a\L	non	1r	.	1ryy	1ryy
.	.	.	.	.	8cc/	.	.	.	.	.	8cc\J	.	.	.	.	.
4c\	.	.	8e/L	.	8b/	.	.	.	.	.	8b\L	ti-	.	.	.	.
.	.	.	8c/J	.	8a/J	.	.	.	.	.	8a\J	.	.	.	.	.
4d\	4	.	4B/	.	4g/	.	.	.	.	.	4g\	-me-	.	.	.	.
4D\	3	.	4A/	.	4f#/	.	.	.	.	.	4f#\	.	.	.	.	.
!	!	!	!	!	!	!	!	!	!	!	!LO:LB:g=original	!	!	!	!	!
=42	=42	=42	=42	=42	=42	=42	=42	=42	=42	=42	=42	=42	=42	=42	=42	=42
4G\	.	.	4B/	.	4g/	.	.	.	.	.	4g\	-bit	2r	.	1ryy	1ryy
!	!	!	!	!	!	!	!	!	!	!	!	!	!LO:TX:a:t=Solo:mod=	!	!	!
4GG/	.	.	4r	.	4r	.	.	.	.	.	4r	.	.	.	.	.
!	!	!	!	!	!	!	!	!	!	!	!	!	!	!LO:MO:mod=pa-	!	!
4G\	.	.	4b\	.	4dd\	.	.	.	.	.	4b\	pa-	4dd\	Pa-	.	.
4r	.	.	4b\	.	4dd\	.	.	.	.	.	4b\	-ra-	4dd\	-ra-	.	.
=43	=43	=43	=43	=43	=43	=43	=43	=43	=43	=43	=43	=43	=43	=43	=43	=43
4r	.	.	4.b\	.	4.dd\	.	.	.	.	.	4.b\	-tum	4.dd\	-tum	1ryy	1ryy
4G\	.	.	.	.	.	.	.	.	.	.	.	.	.	.	.	.
.	.	.	16a/LL	.	16cc\LL	.	.	.	.	.	16a\LL	cor	16cc\LL	cor	.	.
.	.	.	16g/JJ	.	16b\JJ	.	.	.	.	.	16g\JJ	.	16b\JJ	.	.	.
4c\	6	.	8a/L	.	8cc\L	.	.	.	.	.	8a\L	e-	8cc\L	e-	.	.
.	.	.	8cc/	.	8ee\	.	.	.	.	.	8cc\	.	8ee\	.	.	.
4d\	.	.	8a/	.	8cc\	.	.	.	.	.	8a\	.	8cc\	.	.	.
.	.	.	8f#/J	.	8a\J	.	.	.	.	.	8f#\J	.	8a\J	.	.	.
!	!	!	!	!	!LO:LB:g=original	!	!	!	!	!	!	!	!LO:LB:g=original	!	!	!
=44	=44	=44	=44	=44	=44	=44	=44	=44	=44	=44	=44	=44	=44	=44	=44	=44
!	!	!	!	!	!	!	!	!	!	!	!	!LO:MO:mod=-jus	!	!LO:MO:mod=-jus	!	!
4G\	.	.	4g/	.	4b\	.	00r	.	.	.	4g\	-ius	4b\	-ius	1ryy	1ryy
4GG/	.	.	4r	.	4r	.	.	.	.	.	4r	.	4r	.	.	.
!	!	!	!	!	!	!	!	!	!	!	!	!LO:MO:mod=spe-	!	!LO:MO:mod=spe-	!	!
4G\	.	.	4g/	.	4b\	.	.	.	.	.	4g\	Spe-	4b\	Spe-	.	.
4r	.	.	4g/	.	4b\	.	.	.	.	.	4g\	-ra-	4b\	-ra-	.	.
=45	=45	=45	=45	=45	=45	=45	=45	=45	=45	=45	=45	=45	=45	=45	=45	=45
4r	.	.	4.g/	.	4.b/	.	.	.	00r	.	4.g\	-re	4.b\	-re	1ryy	1ryy
4E\	.	.	.	.	.	.	.	.	.	.	.	.	.	.	.	.
.	.	.	16f#/LL	.	16a/LL	.	.	.	.	.	16f#\LL	in	16a\LL	in	.	.
.	.	.	16e/JJ	.	16g/JJ	.	.	.	.	.	16e\JJ	.	16g\JJ	.	.	.
!	!	!	!	!	!	!	!	!	!	!	!	!	!LO:N:vis=16	!	!	!
4A\	6	.	8f#/L	.	8a/L	.	.	.	.	.	8f#\L	Do-	8a\L	Do-	.	.
!	!	!	!	!	!	!	!	!	!	!	!	!	!LO:N:vis=16	!	!	!
.	.	.	8a/	.	8cc/	.	.	.	.	.	8a\J	.	8cc\J	.	.	.
4B\	#	.	8f#/	.	8a/	.	.	.	.	.	8f#\L	-mi-	8a\L	-mi-	.	.
.	.	.	8d#X/J	.	8f#/J	.	.	.	.	.	8d#X\J	.	8f#\J	.	.	.
=46	=46	=46	=46	=46	=46	=46	=46	=46	=46	=46	=46	=46	=46	=46	=46	=46
4E\	.	.	4e/	.	4g/	.	.	.	.	.	4e\	-no	4g\	-no	1ryy	1ryy
4EE/	.	.	4r	.	4r	.	.	.	.	.	4r	.	4r	.	.	.
!	!	!	!LO:LB:g=original	!	!	!	!	!	!	!	!LO:LB:g=original	!LO:MO:mod=con-	!	!LO:MO:mod=con-	!	!
4E\	.	.	8g/L	.	8ee\L	.	.	.	.	.	8g\L	Con-	8ee\L	Con-	.	.
.	.	.	8a/	.	8ff#\	.	.	.	.	.	8a\J	.	8ff#\J	.	.	.
4G\	.	.	8b/	.	8gg\	.	.	.	.	.	8b\L	-fir-	8gg\L	-fir-	.	.
.	.	.	8g/J	.	8ee\J	.	.	.	.	.	8g\J	.	8ee\J	.	.	.
!LO:LB:g=original	!	!	!	!	!	!	!	!	!	!	!	!	!	!	!	!
=47	=47	=47	=47	=47	=47	=47	=47	=47	=47	=47	=47	=47	=47	=47	=47	=47
4B\	#_	.	4f#/	.	4dd#X\	.	.	.	.	.	4f#\	-ma-	4dd#X\	-ma-	1ryy	1ryy
4A\	.	.	4f#/	.	8dd#\L	.	.	.	.	.	4f#\	-tum	8dd#\L	-tum	.	.
.	.	.	.	.	8b\J	.	.	.	.	.	.	.	8b\J	.	.	.
4G\	6	.	8g/L	.	8ee\L	.	.	.	.	.	8g\L	est	8ee\L	est	.	.
.	.	.	8a/	.	8ff#\	.	.	.	.	.	8a\J	.	8ff#\J	.	.	.
4E\	.	.	8b/	.	8gg\	.	.	.	.	.	8b\L	cor	8gg\L	cor	.	.
.	.	.	8g/J	.	8ee\J	.	.	.	.	.	8g\J	.	8ee\J	.	.	.
!	!	!	!	!	!	!	!	!	!	!	!	!	!LO:LB:g=original	!	!	!
=48	=48	=48	=48	=48	=48	=48	=48	=48	=48	=48	=48	=48	=48	=48	=48	=48
4B\	#	.	8g/L	.	8ee\L	.	00r	.	.	.	8g\L	e-	8ee\L	e-	1ryy	1ryy
.	.	.	8f#/J	.	8dd#X\J	.	.	.	.	.	8f#\J	.	8dd#X\J	.	.	.
!	!	!	!	!	!	!	!	!	!	!	!	!LO:MO:mod=-jus	!	!LO:MO:mod=-jus	!	!
4BB/	.	.	4f#/	.	4dd#\	.	.	.	.	.	4f#\	-ius	4dd#\	-ius	.	.
4E\	.	.	8g/L	.	8ee\L	.	.	.	.	.	8g\L	non	8ee\L	non	.	.
.	.	.	8a/	.	8ff#\	.	.	.	.	.	8a\J	.	8ff#\J	.	.	.
!	!	!	!	!	!	!	!	!	!	!	!	!	!	!LO:MO:mod=com-	!	!
4G\	6	.	8b/	.	8gg\	.	.	.	.	.	8b\L	com-	8gg\L	Com-	.	.
.	.	.	8g/J	.	8ee\J	.	.	.	.	.	8g\J	.	8ee\J	.	.	.
=49	=49	=49	=49	=49	=49	=49	=49	=49	=49	=49	=49	=49	=49	=49	=49	=49
!	!	!	!	!	!	!	!	!	!	!	!	!LO:MO:mod=-mo-	!	!LO:MO:mod=-mo-	!	!
4B\	#_	.	4.f#/	.	4.dd#X\	.	.	.	00r	.	4.f#\	-mo-	4.dd#X\	-me-	1ryy	1ryy
4B\	.	.	.	.	.	.	.	.	.	.	.	.	.	.	.	.
.	.	.	16g/LL	.	16ee\LL	.	.	.	.	.	16g\LL	.	16ee\LL	.	.	.
.	X	.	16a/JJ	.	16ff#\JJ	.	.	.	.	.	16a\JJ	.	16ff#\JJ	.	.	.
4BB/	.	.	8b/L	.	8gg\L	.	.	.	.	.	8b\L	-ve-	8gg\L	-ve-	.	.
.	.	.	8a/	.	8ff#\	.	.	.	.	.	8a\J	.	8ff#\J	.	.	.
4BB/	.	.	8g/	.	8ee\	.	.	.	.	.	8g\L	-bi-	8ee\L	-bi-	.	.
.	.	.	8f#/J	.	8dd#\J	.	.	.	.	.	8f#\J	.	8dd#\J	.	.	.
!	!	!	!	!	!LO:LB:g=original	!	!	!	!	!	!LO:LB:g=original	!	!	!	!	!
=50	=50	=50	=50	=50	=50	=50	=50	=50	=50	=50	=50	=50	=50	=50	=50	=50
4E\	.	.	4g/	.	4ee\	.	.	.	.	.	4g\	-tur	4ee\	-tur	1ryy	1ryy
4E\	.	.	4g/	.	4b\	.	.	.	.	.	4g\	do-	4b\	do-	.	.
2r	.	.	4g/	.	8b\L	.	.	.	.	.	4g\	-nec	8b\L	-nec	.	.
.	.	.	.	.	8cc\	.	.	.	.	.	.	.	8cc\J	.	.	.
!	!	!	!	!	!LO:SIC:o=8dd\	!	!	!	!	!	!	!	!	!	!	!
.	.	.	4g/	.	8dd#	.	.	.	.	.	4g\	deſ-	8dd#X\L	des-	.	.
.	.	.	.	.	8ee\J	.	.	.	.	.	.	.	8ee\J	.	.	.
=51	=51	=51	=51	=51	=51	=51	=51	=51	=51	=51	=51	=51	=51	=51	=51	=51
!	!	!	!	!	!LO:MO:mod=*null:null	!	!	!	!	!	!	!	!	!	!	!
*	*	*	*	*	*2\right	*	*	*	*	*	*	*	*	*	*	*
4r	.	.	2a/	.	2cc\	.	.	.	.	.	2a\	-pi-	2cc\	-pi-	1ryy	1ryy
4D#X\	7 5	.	.	.	.	.	.	.	.	.	.	.	.	.	.	.
4D#\	6 4	.	4g/	.	4b\	.	.	.	.	.	4g\	-ci-	4b\	-ci-	.	.
4D#\	5 3	.	4f#/	.	4a/	.	.	.	.	.	4f#\	-at	4a\	-at	.	.
!	!	!	!	!	!	!	!	!	!	!	!	!	!LO:LB:g=original	!	!	!
=52	=52	=52	=52	=52	=52	=52	=52	=52	=52	=52	=52	=52	=52	=52	=52	=52
4E\	.	.	4e/	.	4g/	.	00r	.	.	.	4e\	i-	4g\	i-	1ryy	1ryy
4E\	.	.	8f#/L	.	8a/L	.	.	.	.	.	8f#\L	-ni-	8a\L	-ni-	.	.
.	.	.	8g/J	.	8b/J	.	.	.	.	.	8g\J	.	8b\J	.	.	.
4A\	6	.	4a/	.	4cc\	.	.	.	.	.	4a\	-mi-	4cc\	-mi-	.	.
4A\	.	.	8g/L	.	8b/L	.	.	.	.	.	8g\L	-cos	8b\L	-cos	.	.
.	.	.	8f#/J	.	8a/J	.	.	.	.	.	8f#\J	.	8a\J	.	.	.
!	!	!	!LO:LB:g=original	!	!	!	!	!	!	!	!	!	!	!	!	!
=53	=53	=53	=53	=53	=53	=53	=53	=53	=53	=53	=53	=53	=53	=53	=53	=53
4B\	4	.	2e/	.	2g/	.	.	.	00r	.	2e\	ſu-	2g/	su-	1ryy	1ryy
4B\	.	.	.	.	.	.	.	.	.	.	.	.	.	.	.	.
4BB/	#	.	2d#X/	.	2f#/	.	.	.	.	.	2d#X\	.	2f#/	.	.	.
4BB/	.	.	.	.	.	.	.	.	.	.	.	.	.	.	.	.
=54	=54	=54	=54	=54	=54	=54	=54	=54	=54	=54	=54	=54	=54	=54	=54	=54
!	!	!LO:DY:a:t=f.:mod=%s	!LO:SIC:o=1b 1g	!LO:DY:a:t=for:mod=%s	!	!	!	!	!	!	!	!LO:MO:mod=-os.	!	!LO:MO:mod=-os.	!	!
[<1E	.	f	[1b [1g	f	4g/	.	.	.	.	.	2e\	-os	2g/	-os	1ryy	1ryy
!	!	!	!	!	!	!LO:DY:a:t=for:mod=%s	!	!	!	!	!	!	!	!	!	!
.	.	.	.	.	8ee\L	f	.	.	.	.	.	.	.	.	.	.
.	.	.	.	.	8dd#X\J	.	.	.	.	.	.	.	.	.	.	.
.	.	.	.	.	8ee\L	.	.	.	.	.	2r	.	2r	.	.	.
.	.	.	.	.	8ff#\	.	.	.	.	.	.	.	.	.	.	.
.	.	.	.	.	8gg\	.	.	.	.	.	.	.	.	.	.	.
.	.	.	.	.	8ff#\J	.	.	.	.	.	.	.	.	.	.	.
=55	=55	=55	=55	=55	=55	=55	=55	=55	=55	=55	=55	=55	=55	=55	=55	=55
!	!	!	!LO:SIC:o=1b 1g	!	!	!	!	!	!	!	!	!	!	!	!	!
1E_<	.	.	1b_ 1g_	.	8ee\L	.	.	.	.	.	0r	.	0r	.	1ryy	1ryy
.	.	.	.	.	8dd#X\	.	.	.	.	.	.	.	.	.	.	.
.	.	.	.	.	8cc\	.	.	.	.	.	.	.	.	.	.	.
.	.	.	.	.	8b\J	.	.	.	.	.	.	.	.	.	.	.
.	.	.	.	.	4ee\	.	.	.	.	.	.	.	.	.	.	.
.	.	.	.	.	8gg\L	.	.	.	.	.	.	.	.	.	.	.
.	.	.	.	.	8bb\J	.	.	.	.	.	.	.	.	.	.	.
=56	=56	=56	=56	=56	=56	=56	=56	=56	=56	=56	=56	=56	=56	=56	=56	=56
!	!	!	!LO:SIC:o=1b 1g	!	!	!	!	!	!	!	!	!	!	!	!	!
1E_<	.	.	1b_ 1g_	.	4ee\	.	0r	.	.	.	.	.	.	.	1ryy	1ryy
.	.	.	.	.	8ee\L	.	.	.	.	.	.	.	.	.	.	.
.	.	.	.	.	8dd#X\J	.	.	.	.	.	.	.	.	.	.	.
!	!	!	!	!	!LO:LB:g=original	!	!	!	!	!	!	!	!	!	!	!
.	.	.	.	.	8ee\L	.	.	.	.	.	.	.	.	.	.	.
.	.	.	.	.	8ff#\	.	.	.	.	.	.	.	.	.	.	.
.	.	.	.	.	8gg\	.	.	.	.	.	.	.	.	.	.	.
.	.	.	.	.	8ff#\J	.	.	.	.	.	.	.	.	.	.	.
=57	=57	=57	=57	=57	=57	=57	=57	=57	=57	=57	=57	=57	=57	=57	=57	=57
!	!	!	!LO:SIC:o=1b 1g	!	!	!	!	!	!	!	!	!	!	!	!	!
1E]	.	.	1b] 1g]	.	8ee\L	.	.	.	1r	.	1r	.	1r	.	1ryy	1ryy
.	.	.	.	.	8dd#X\	.	.	.	.	.	.	.	.	.	.	.
.	.	.	.	.	8cc\	.	.	.	.	.	.	.	.	.	.	.
.	.	.	.	.	8b\J	.	.	.	.	.	.	.	.	.	.	.
.	.	.	.	.	4ee\	.	.	.	.	.	.	.	.	.	.	.
.	.	.	.	.	8bb\L	.	.	.	.	.	.	.	.	.	.	.
.	.	.	.	.	8gg\J	.	.	.	.	.	.	.	.	.	.	.
!LO:LB:g=original	!	!	!	!	!	!	!	!	!	!	!	!	!	!	!	!
=58	=58	=58	=58	=58	=58	=58	=58	=58	=58	=58	=58	=58	=58	=58	=58	=58
!!LO:TX:a:t= :mod=Tutti
!LO:TX:a:t=Tutti:mod=	!	!	!	!	!	!	!	!	!	!	!	!	!	!	!	!
4E\	.	.	4b 4g/	.	4ee\	.	2E\	Diſ-	2e\	Diſ-	2g\	Diſ-	2b\	Diſ-	1ryy	1ryy
4E\	.	.	8e/L	.	8g/L	.	.	.	.	.	.	.	.	.	.	.
.	.	.	8f#/J	.	8a/J	.	.	.	.	.	.	.	.	.	.	.
!	!	!	!	!	!	!	!	!	!	!	!LO:LB:g=original	!	!	!	!	!
4E\	.	.	4g/	.	8b\L	.	4E\	-per-	4e\	-per-	4g\	-per-	4b\	-per-	.	.
.	.	.	.	.	8cc\	.	.	.	.	.	.	.	.	.	.	.
4E\	.	.	4g/	.	8dd#X\	.	4E\	-sit	4e\	-sit	4g\	-sit	4b\	-sit	.	.
.	.	.	.	.	8ee\J	.	.	.	.	.	.	.	.	.	.	.
!	!	!	!	!	!	!	!LO:LB:g=original	!	!	!	!	!	!	!	!	!
=59	=59	=59	=59	=59	=59	=59	=59	=59	=59	=59	=59	=59	=59	=59	=59	=59
4E\	6 4	.	4a/	.	8cc\L	.	2E\	de-	2e\	de-	2a\	de-	2cc\	de-	1ryy	1ryy
.	.	.	.	.	8b\	.	.	.	.	.	.	.	.	.	.	.
4E\	.	.	4a/	.	8cc\	.	.	.	.	.	.	.	.	.	.	.
.	.	.	.	.	8a\J	.	.	.	.	.	.	.	.	.	.	.
4E\	5 3	.	4g/	.	8b\L	.	2E\	-dit	2e\	-dit	2g\	-dit	2b\	-dit	.	.
.	.	.	.	.	8cc\	.	.	.	.	.	.	.	.	.	.	.
4E\	.	.	4g/	.	8dd#X\	.	.	.	.	.	.	.	.	.	.	.
.	.	.	.	.	8ee\J	.	.	.	.	.	.	.	.	.	.	.
!	!	!	!	!	!	!	!	!	!LO:LB:g=original	!	!	!	!LO:LB:g=original	!	!	!
=60	=60	=60	=60	=60	=60	=60	=60	=60	=60	=60	=60	=60	=60	=60	=60	=60
*	*	*	*	*	*	*	*	*	*	*ij	*	*ij	*	*ij	*	*
4D#X\	6_ 5_	.	4f#/	.	8ff#\L	.	2D#X\	de-	2B\	de-	2f#\	de-	(4b\	de-	1ryy	1ryy
!	!	!	!	!	!LO:SIC:o=8dd\	!	!	!	!	!	!	!	!	!	!	!
.	.	.	.	.	8dd#	.	.	.	.	.	.	.	.	.	.	.
4D#\	.	.	4f#/	.	8cc\	.	.	.	.	.	.	.	4a\)	.	.	.
.	.	.	.	.	8b\J	.	.	.	.	.	.	.	.	.	.	.
4D#\	.	.	4B/	.	8a/L	.	4D#\	-dit	4B\	-dit	4f#\	-dit	4a\	-dit	.	.
*	*	*	*	*	*	*	*	*	*	*Xij	*	*Xij	*	*Xij	*	*
.	.	.	.	.	8f#/	.	.	.	.	.	.	.	.	.	.	.
!	!	!	!	!	!	!	!	!LO:MO:null:mod=pau-	!	!	!	!	!	!	!	!
4D#\	.	.	4f#/	.	8b/	.	4D#\	.	4B\	pau-	4f#\	pau-	4a\	pau-	.	.
.	X X	.	.	.	8a/J	.	.	.	.	.	.	.	.	.	.	.
=61	=61	=61	=61	=61	=61	=61	=61	=61	=61	=61	=61	=61	=61	=61	=61	=61
!	!	!	!	!	!	!	!	!LO:MO:mod=*null:null	!	!	!	!	!	!	!	!
*	*	*	*	*	*	*	*	*ij	*	*	*	*	*	*	*	*
!	!	!	!	!	!	!	!	!LO:MO:mod=-pe-	!	!	!	!	!	!	!	!
4E\	4	.	4.f#/	.	4.a/	.	4.E\	de-	4.B\	-pe-	4.f#\	-pe-	4.a\	-pe-	1ryy	1ryy
4E\	.	.	.	.	.	.	.	.	.	.	.	.	.	.	.	.
!	!	!	!	!	!	!	!	!LO:MO:mod=-ri-	!	!	!	!	!	!	!	!
.	.	.	16e/LL	.	16g/LL	.	8E\	-dit	8B\	-ri-	8f#\	-ri-	8a\	-ri-	.	.
!	!	!	!	!	!	!	!	!LO:MO:mod=*null:null	!	!	!	!	!	!	!	!
*	*	*	*	*	*	*	*	*Xij	*	*	*	*	*	*	*	*
.	.	.	16f#/JJ	.	16a/JJ	.	.	.	.	.	.	.	.	.	.	.
!	!	!	!	!	!	!	!	!LO:MO:mod=-bus	!	!	!	!	!	!	!	!
4EE/	3	.	4e/	.	8g/L	.	4E\	pau-	4B\	-bus	4e\	-bus	4g\	-bus	.	.
.	.	.	.	.	8b/J	.	.	.	.	.	.	.	.	.	.	.
!	!	!	!	!	!	!	!	!LO:MO:mod=jus-	!	!LO:MO:mod=jus-	!	!LO:MO:mod=jus-	!	!LO:MO:mod=jus-	!	!
4E\	.	.	4g/	.	8ee\L	.	4E\	-pe-	4B\	Juſ-	4g\	Juſ-	4ee\	Jus-	.	.
.	.	.	.	.	8gg\J	.	.	.	.	.	.	.	.	.	.	.
!	!	!	!	!	!LO:LB:g=original	!	!	!	!	!	!	!	!	!	!	!
=62	=62	=62	=62	=62	=62	=62	=62	=62	=62	=62	=62	=62	=62	=62	=62	=62
!	!	!	!	!	!	!	!	!LO:MO:mod=-ti-	!	!	!	!	!	!	!	!
4D#X/	6	.	4f#/	.	8bb\L	.	4D#X\	-ri-	4B\	-ti-	4a\	-ti-	4ff#\	-ti-	1ryy	1ryy
.	.	.	.	.	8aa\	.	.	.	.	.	.	.	.	.	.	.
!	!	!	!	!	!	!	!	!LO:MO:mod=-ti-	!	!	!	!	!	!	!	!
4BB/	.	.	4f#/	.	8ff#\	.	8BB/	-bus	8B\	-ti-	8a\	-ti-	8ff#\	-ti-	.	.
!	!	!	!	!	!	!	!	!LO:MO:mod=-a	!	!	!	!	!	!	!	!
.	.	.	.	.	8dd#X\J	.	8BB/	Jus-	8B\	-a	8a\	-a	8ff#\	-a	.	.
!	!	!	!	!	!	!	!	!LO:MO:mod=e-	!	!	!	!	!	!	!	!
4E\	.	.	4g/	.	8ee\L	.	4E\	-ti-	4B\	e-	4g\	e-	4ee\	e-	.	.
.	.	.	.	.	8b\	.	.	.	.	.	.	.	.	.	.	.
!	!	!	!	!	!	!	!	!LO:MO:mod=-jus	!	!LO:MO:mod=-jus	!	!LO:MO:mod=-jus	!	!LO:MO:mod=-jus	!	!
4E\	.	.	4g/	.	8ee\	.	4E\	-ti-	4B\	-ius	4g\	-ius	4ee\	-ius	.	.
.	.	.	.	.	8gg\J	.	.	.	.	.	.	.	.	.	.	.
!	!	!	!LO:LB:g=original	!	!	!	!	!	!	!	!	!	!	!	!	!
=63	=63	=63	=63	=63	=63	=63	=63	=63	=63	=63	=63	=63	=63	=63	=63	=63
!	!	!	!	!	!	!	!	!LO:MO:mod=ma-	!	!	!	!	!	!	!	!
4D#X/	6	.	4f#/	.	8bb\L	.	(4D#X/	-a	2B\	ma-	2a\	ma-	2ff#\	ma-	1ryy	1ryy
.	.	.	.	.	8aa\	.	.	.	.	.	.	.	.	.	.	.
!	!	!	!	!	!	!	!	!LO:MO:mod=.	!	!	!	!	!	!	!	!
4BB/	.	.	4f#/	.	8ff#\	.	4BB/)	eius	.	.	.	.	.	.	.	.
.	.	.	.	.	8dd#X\J	.	.	.	.	.	.	.	.	.	.	.
!	!	!	!	!	!	!	!	!LO:MO:mod=-net	!	!	!	!	!	!	!	!
4E\	.	.	4g/	.	8ee\L	.	4E\	ma-	4B\	-net	4g\	-net	4ee\	-net	.	.
.	.	.	.	.	8b\	.	.	.	.	.	.	.	.	.	.	.
!	!	!	!	!	!	!	!	!LO:MO:mod=in	!	!	!	!	!	!	!	!
4E\	.	.	4g/	.	8ee\	.	4E\	-net	4B\	in	4g\	in	4ee\	in	.	.
.	.	.	.	.	8gg\J	.	.	.	.	.	.	.	.	.	.	.
!	!	!	!	!	!	!	!LO:PB:g=original	!	!	!	!LO:LB:g=original	!	!	!	!	!
=64	=64	=64	=64	=64	=64	=64	=64	=64	=64	=64	=64	=64	=64	=64	=64	=64
!	!	!	!	!	!	!	!	!LO:MO:mod=sae-	!	!LO:MO:mod=sae-	!	!LO:MO:mod=sae-	!	!LO:MO:mod=sae-	!	!
4A\	6	.	8a/L	.	8ff#\L	.	4A\	in	4c\	Sae-	4a\	Sae-	4ff#\	Sae-	1ryy	1ryy
!	!	!	!LO:SIC:o=8b/	!	!	!	!	!	!	!	!	!	!	!	!	!
.	.	.	8cc	.	8aa\	.	.	.	.	.	.	.	.	.	.	.
!	!	!	!LO:SIC:o=8cc/	!	!	!	!	!LO:MO:mod=-cu-	!	!	!	!	!	!	!	!
4A\	.	.	8b	.	8gg\	.	8A\	Saecu-	8c\	-cu-	8a\	-cu-	8ff#\	-cu-	.	.
!	!	!	!LO:SIC:o=8b/J	!	!	!	!	!LO:MO:mod=-lum	!	!	!	!	!LO:LB:g=original	!	!	!
.	.	.	8aJ	.	8ff#\J	.	8A\	-lu(m)	8c\	-lum	8a\	-lum	8ff#\	-lum	.	.
!	!	!	!	!	!	!	!	!LO:MO:mod=sae-	!	!LO:MO:mod=sae-	!	!LO:MO:mod=sae-	!	!LO:MO:mod=sae-	!	!
4B\	4	.	8a/L	.	8ff#\L	.	4B\	Sae-	4B\	Sae-	4g\	Sae-	4ee\	Sae-	.	.
.	.	.	8g/	.	8ee\	.	.	.	.	.	.	.	.	.	.	.
4BB/	#	.	8g/	.	8ee\	.	4BB/	-cu-	4B\	-cu-	4f#\	-cu-	4dd#X\	-cu-	.	.
.	.	.	8f#/J	.	8dd#X\J	.	.	.	.	.	.	.	.	.	.	.
=65	=65	=65	=65	=65	=65	=65	=65	=65	=65	=65	=65	=65	=65	=65	=65	=65
4E\	.	.	4g/	.	4ee\	.	4E\	-li	4B\	-li	4g\	-li	4ee\	-li	1ryy	1ryy
4EE/	.	.	4b/	.	8ff#\L	.	4r	.	4r	.	4r	.	4r	.	.	.
.	.	.	.	.	8gg\J	.	.	.	.	.	.	.	.	.	.	.
!	!	!	!	!	!	!	!	!LO:MO:mod=cor-	!LO:LB:g=original	!LO:MO:mod=cor-	!	!LO:MO:mod=cor-	!	!LO:MO:mod=cor-	!	!
4E\|	.	.	4e/	.	4ee\	.	4E\	Cor-	4e\	Cor-	4e\	Cor-	4ee\	Cor-	.	.
(8E\L	.	.	8e/L	.	8ee\L	.	8E\L	-nu	8e\L	-nu	8e\L	-nu	8ee\L	-nu	.	.
8G\J)	.	.	8g/J	.	8gg\J	.	8G\J	.	8g\J	.	8g\J	.	8gg\J	.	.	.
=66	=66	=66	=66	=66	=66	=66	=66	=66	=66	=66	=66	=66	=66	=66	=66	=66
!	!	!	!	!	!	!	!	!	!	!	!LO:SIC:o=4c/	!	!	!	!	!
4BB/|>	.	.	4B/	.	4b\	.	4BB/	e-	4B\	e-	4B	e-	4b\	e-	1ryy	1ryy
!	!	!	!	!	!	!	!	!LO:MO:mod=-jus	!	!LO:MO:mod=-jus	!	!LO:MO:mod=-jus	!	!LO:MO:mod=-jus	!	!
4BB/|>	.	.	4B/	.	4b\	.	4BB/	-ius	4B\	-ius	4B/	-ius	4b\	-ius	.	.
!	!	!	!	!	!	!	!	!	!	!	!	!	!	!LO:MO:mod=ex-	!	!
4E\|	.	.	4e/	.	4ee\	.	4E\	ex-	4e\	ex-	4e\	ex-	4ee\	e-	.	.
!	!	!	!	!	!	!	!	!	!	!	!	!	!	!LO:MO:mod=-al-	!	!
(8E\L	.	.	8e/L	.	8ee\L	.	8E\L	-al-	8e\L	-al-	8e\L	-al-	8ee\L	-xal-	.	.
!	!	!	!	!	!	!	!	!LO:MO:mod=.	!	!	!	!	!	!	!	!
8G\J)	.	.	8g/J	.	8gg\J	.	8G\J	-ta-	8g\J	.	8g\J	.	8gg\J	.	.	.
!LO:LB:g=original	!	!	!	!	!	!	!	!	!	!	!	!	!	!	!	!
=67	=67	=67	=67	=67	=67	=67	=67	=67	=67	=67	=67	=67	=67	=67	=67	=67
!	!	!	!	!	!	!	!	!LO:MO:mod=-ta-	!	!	!	!	!	!	!	!
4BB/|>	.	.	4B/	.	4b\	.	4BB/	-bi-	4B\	-ta-	4B/	-ta-	4b\	-ta-	1ryy	1ryy
!	!	!	!	!	!	!	!	!LO:MO:mod=-bi-	!	!	!	!	!	!	!	!
4BB/|>	.	.	4B/	.	4b\	.	4BB/	-tur	4B\	-bit-	4B/	-bi-	4b\	-bi-	.	.
!	!	!	!	!	!	!	!	!LO:MO:null:mod=-tur	!	!	!	!	!	!	!	!
4E\|	.	.	4e/	.	4ee\	.	4E\	.	4e\	-tur	4e\	-tur	4ee\	-tur	.	.
(8G\L	.	.	8g/L	.	8gg\L	.	8G\L	in	8g\L	in	8g\L	in	8gg\L	in	.	.
8E\J)	.	.	8e/J	.	8ee\J	.	8E\J	.	8e\J	.	8e\J	.	8ee\J	.	.	.
!	!	!	!	!	!LO:LB:g=original	!	!	!	!	!	!LO:LB:g=original	!	!	!	!	!
=68	=68	=68	=68	=68	=68	=68	=68	=68	=68	=68	=68	=68	=68	=68	=68	=68
!	!	!	!	!	!	!	!	!	!	!	!	!LO:MO:mod=glo-	!	!	!	!
4D#X/|	.	.	4d#X/	.	4dd#X\	.	4D#X/	glo-	4d\	glo-	4d#X\	Glo-	4dd#X\	glo-	1ryy	1ryy
!	!	!	!	!	!	!	!	!	!	!	!	!	!LO:LB:g=original	!	!	!
(8C/L	.	.	8c/L	.	8cc\L	.	8C/L	.	8c\L	.	8c\L	.	8cc\L	.	.	.
!	!	!	!LO:SIC:o=8A/J	!	!	!	!	!	!	!	!	!	!	!	!	!
8BB/J)	.	.	8BJ	.	8b\J	.	8BB/J	.	8B\J	.	8B\J	.	8b\J	.	.	.
4C/|	.	.	4c/	.	4cc\	.	4C/	.	4c\	.	4c\	.	4cc\	.	.	.
4D#/|	.	.	4d#/	.	4dd#\	.	4D#/	-ri-	4d\	-ri-	4d#\	-ri-	4dd#\	-ri-	.	.
!	!	!	!	!	!	!	!LO:LB:g=original	!	!	!	!	!	!	!	!	!
=69	=69	=69	=69	=69	=69	=69	=69	=69	=69	=69	=69	=69	=69	=69	=69	=69
!	!	!	!LO:SIC:o=1b 1g	!	!	!	!	!LO:MO:mod=-a.	!	!LO:MO:mod=-a.	!	!LO:MO:mod=-a.	!	!LO:MO:mod=-a.	!	!
[<1E	.	.	[1b [1g	.	8ee\L	.	2E\	-a	2e\	-a	2e\	-a	2ee\	-a	1ryy	1ryy
.	.	.	.	.	8b\	.	.	.	.	.	.	.	.	.	.	.
.	.	.	.	.	8ee\	.	.	.	.	.	.	.	.	.	.	.
.	.	.	.	.	8gg\J	.	.	.	.	.	.	.	.	.	.	.
.	.	.	.	.	4bb\	.	2r	.	2r	.	2r	.	2r	.	.	.
.	.	.	.	.	8bb\L	.	.	.	.	.	.	.	.	.	.	.
.	.	.	.	.	8gg\J	.	.	.	.	.	.	.	.	.	.	.
=70	=70	=70	=70	=70	=70	=70	=70	=70	=70	=70	=70	=70	=70	=70	=70	=70
!	!	!	!LO:SIC:o=1b 1g	!	!	!	!	!	!	!	!	!	!	!	!	!
1E_<	.	.	1b_ 1g_	.	8ee\L	.	00r	.	00r	.	0r	.	00r	.	1ryy	1ryy
.	.	.	.	.	8ff#\	.	.	.	.	.	.	.	.	.	.	.
.	.	.	.	.	8gg\	.	.	.	.	.	.	.	.	.	.	.
.	.	.	.	.	8ff#\J	.	.	.	.	.	.	.	.	.	.	.
.	.	.	.	.	4ee\	.	.	.	.	.	.	.	.	.	.	.
.	.	.	.	.	8b\L	.	.	.	.	.	.	.	.	.	.	.
.	.	.	.	.	8gg\J	.	.	.	.	.	.	.	.	.	.	.
=71	=71	=71	=71	=71	=71	=71	=71	=71	=71	=71	=71	=71	=71	=71	=71	=71
!	!	!	!LO:SIC:o=1b 1g	!	!	!	!	!	!	!	!	!	!	!	!	!
1E_<	.	.	1b_ 1g_	.	8ee\L	.	.	.	.	.	.	.	.	.	1ryy	1ryy
.	.	.	.	.	8b\	.	.	.	.	.	.	.	.	.	.	.
.	.	.	.	.	8ee\	.	.	.	.	.	.	.	.	.	.	.
.	.	.	.	.	8gg\J	.	.	.	.	.	.	.	.	.	.	.
.	.	.	.	.	4bb\	.	.	.	.	.	.	.	.	.	.	.
.	.	.	.	.	8bb\L	.	.	.	.	.	.	.	.	.	.	.
.	.	.	.	.	8gg\J	.	.	.	.	.	.	.	.	.	.	.
!	!	!	!LO:LB:g=original	!	!	!	!	!	!	!	!	!	!	!	!	!
=72	=72	=72	=72	=72	=72	=72	=72	=72	=72	=72	=72	=72	=72	=72	=72	=72
!	!	!	!LO:SIC:o=1b 1g	!	!	!	!	!	!	!	!	!	!	!	!	!
1E]	.	.	1b] 1g]	.	8ee\L	.	.	.	.	.	1r	.	.	.	1ryy	1ryy
.	.	.	.	.	8ff#\	.	.	.	.	.	.	.	.	.	.	.
.	.	.	.	.	8gg\	.	.	.	.	.	.	.	.	.	.	.
.	.	.	.	.	8ff#\J	.	.	.	.	.	.	.	.	.	.	.
.	.	.	.	.	4ee\	.	.	.	.	.	.	.	.	.	.	.
.	.	.	.	.	8bb\L	.	.	.	.	.	.	.	.	.	.	.
.	.	.	.	.	8gg\J	.	.	.	.	.	.	.	.	.	.	.
=73	=73	=73	=73	=73	=73	=73	=73	=73	=73	=73	=73	=73	=73	=73	=73	=73
!	!	!	!	!LO:MO:mod=!LO&colon;DY&colon;ed=brack	!	!	!	!	!	!	!	!	!	!	!	!
!	!	!	!	!null	!	!	!	!	!	!	!	!	!	!	!	!
!LO:TX:a:rj:t=Solo:mod=	!	!LO:MO:null:mod=p	!	!LO:MO:null:mod=p	!	!LO:DY:a:t=p.:mod=%s	!	!	!	!	!LO:TX:a:t=Solo:mod=	!	!	!	!	!
4E\	.	.	4b 4g/	.	4ee\	p	.	.	.	.	4r	.	.	.	1ryy	1ryy
!	!	!LO:DY:a:t=p.:mod= 	!	!	!	!	!	!	!	!	!LO:TX:a:i:t= :mod=Solo	!	!	!	!	!
4E\	.	p	4b 4g/	.	8ee\L	.	.	.	.	.	8e\L	Glo-	.	.	.	.
.	.	.	.	.	8ff#\J	.	.	.	.	.	8f#\J	.	.	.	.	.
4E\	.	.	4b 4g/	.	8gg\L	.	.	.	.	.	8g\L	-ri-	.	.	.	.
.	.	.	.	.	8bb\	.	.	.	.	.	8b\J	.	.	.	.	.
4G\	6	.	4b 4g/	.	8gg\	.	.	.	.	.	8g\L	-a	.	.	.	.
.	.	.	.	.	8ee\J	.	.	.	.	.	8e\J	.	.	.	.	.
!	!	!	!	!	!LO:LB:g=original	!	!	!	!	!	!	!	!	!	!	!
=74	=74	=74	=74	=74	=74	=74	=74	=74	=74	=74	=74	=74	=74	=74	=74	=74
!	!	!	!	!	!	!	!	!	!	!	!	!LO:MO:mod=Pa-	!	!	!	!
4B\	#_	.	4b 4f#/	.	4dd#X\	.	00r	.	00r	.	(4d#X\	pat-	00r	.	1ryy	1ryy
4A\	.	.	4b 4f#/	.	8dd#\L	.	.	.	.	.	8d#\L)	.	.	.	.	.
.	.	.	.	.	8b\J	.	.	.	.	.	8B\J	.	.	.	.	.
!	!	!	!LO:SIC:o=4b 4f#/	!	!	!	!	!	!	!	!	!LO:MO:mod=-tri	!	!	!	!
4G\	6	.	4b 4g	.	4ee\	.	.	.	.	.	4e\	-ri	.	.	.	.
!	!	!	!LO:SIC:o=4b 4f#/	!	!	!	!	!	!	!	!	!	!	!	!	!
4E\	.	.	4b 4g	.	8gg\L	.	.	.	.	.	8g\L	et	.	.	.	.
.	.	.	.	.	8ee\J	.	.	.	.	.	8e\J	.	.	.	.	.
=75	=75	=75	=75	=75	=75	=75	=75	=75	=75	=75	=75	=75	=75	=75	=75	=75
!	!	!	!	!	!	!	!	!	!	!	!	!LO:MO:mod=Fi-	!	!	!	!
4B\	#_	.	4b 4f#/	.	4dd#X\	.	.	.	.	.	4d#X\	fi-	.	.	1ryy	1ryy
!	!	!	!	!	!	!	!	!	!	!	!LO:LB:g=original	!	!	!	!	!
4A\	.	.	4b 4f#/	.	8dd#\L	.	.	.	.	.	8d#\L	-li-	.	.	.	.
.	.	.	.	.	8b\J	.	.	.	.	.	8B\J	.	.	.	.	.
4G\	6	.	4b 4g/	.	4ee\	.	.	.	.	.	4e\	-o	.	.	.	.
4E\	.	.	4b 4g/	.	8gg\L	.	.	.	.	.	8g\L	et	.	.	.	.
.	.	.	.	.	8bb\J	.	.	.	.	.	8b\J	.	.	.	.	.
=76	=76	=76	=76	=76	=76	=76	=76	=76	=76	=76	=76	=76	=76	=76	=76	=76
4D#X\	6 5	.	4b 4f#/	.	8bb\L	.	.	.	.	.	8b\L	Spi-	.	.	1ryy	1ryy
.	.	.	.	.	8aa\	.	.	.	.	.	8a\J	.	.	.	.	.
4D#\	.	.	4b 4f#/	.	8ff#\	.	.	.	.	.	8f#\L	-ri-	.	.	.	.
.	.	.	.	.	8aa\J	.	.	.	.	.	8a\J	.	.	.	.	.
4E\	.	.	4b 4g/	.	8aa\L	.	.	.	.	.	8a\L	-tu-	.	.	.	.
.	.	.	.	.	8gg\	.	.	.	.	.	8g\J	.	.	.	.	.
4G\	6	.	4b 4g/	.	8ff#\	.	.	.	.	.	8f#\L	-i	.	.	.	.
.	.	.	.	.	8ee\J	.	.	.	.	.	8e\J	.	.	.	.	.
!LO:PB:g=original	!	!	!	!	!	!	!	!	!	!	!	!	!	!	!	!
=77	=77	=77	=77	=77	=77	=77	=77	=77	=77	=77	=77	=77	=77	=77	=77	=77
4A\	6	.	4cc\	.	8ff#\L	.	.	.	.	.	8f#\L	Sanc-	.	.	1ryy	1ryy
.	.	.	.	.	8gg\	.	.	.	.	.	8g\	.	.	.	.	.
4A\	.	.	4g/	.	8aa\	.	.	.	.	.	8a\	.	.	.	.	.
.	.	.	.	.	8ff#\J	.	.	.	.	.	8f#\J	.	.	.	.	.
4B\	4	.	4g/	.	4ee\	.	.	.	.	.	4e\	.	.	.	.	.
4BB/	#	.	4f#/	.	4dd#X\	.	.	.	.	.	4d#X\	.	.	.	.	.
=78	=78	=78	=78	=78	=78	=78	=78	=78	=78	=78	=78	=78	=78	=78	=78	=78
*2\right	*	*	*	*	*	*	*	*	*	*	*	*	*	*	*	*
2E\	.	.	8e/L	.	8ee\L	.	1r	.	1r	.	2e\	-to	1r	.	1ryy	1ryy
.	.	.	8B/	.	8b\	.	.	.	.	.	.	.	.	.	.	.
!	!	!	!	!	!	!LO:DY:a:t=for:mod= 	!	!	!	!	!	!	!	!	!	!
.	.	.	8c/	.	8cc\	f	.	.	.	.	.	.	.	.	.	.
.	.	.	8d#X/J	.	8dd#X\J	.	.	.	.	.	.	.	.	.	.	.
2r	.	.	8e/L	.	8ee\L	.	.	.	.	.	2r	.	.	.	.	.
.	.	.	8g/	.	8gg\	.	.	.	.	.	.	.	.	.	.	.
.	.	.	8b/	.	8bb\	.	.	.	.	.	.	.	.	.	.	.
.	.	.	8g/J	.	8gg\J	.	.	.	.	.	.	.	.	.	.	.
=79	=79	=79	=79	=79	=79	=79	=79	=79	=79	=79	=79	=79	=79	=79	=79	=79
!	!	!LO:MO:mod=!LO&colon;DY&colon;ed=brack	!	!LO:MO:mod=!LO&colon;DY&colon;ed=brack	!	!	!	!	!	!	!	!	!	!	!	!
!	!	!null	!	!null	!	!	!	!	!	!	!	!	!	!	!	!
!	!	!LO:MO:null:mod=f	!	!LO:MO:null:mod=f	!	!LO:MO:null:mod=f	!	!LO:MO:mod=si-	!	!LO:MO:mod=si-	!	!LO:MO:mod=si-	!	!LO:MO:mod=si-	!	!
8E\L|	.	.	8e/L	.	8ee\L	.	8E\L	Si-	8e\L	Si-	8e\L	Si-	8ee\L	Si-	1ryy	1ryy
8F#\|	.	.	8f#/	.	8ff#\	.	8F#\J	.	8f#\J	.	8f#\J	.	8ff#\J	.	.	.
8G\|	.	.	8g/	.	8gg\	.	8G\L	-cut	8g\L	-cut	8g\L	-cut	8gg\L	-cut	.	.
8A\J|	.	.	8a/J	.	8aa\J	.	8A\J	.	8a\J	.	8a\J	.	8aa\J	.	.	.
!	!	!	!	!	!	!	!	!	!LO:LB:g=original	!	!	!	!	!	!	!
4B\|	.	.	4b/	.	4bb\	.	4B\	e-	4b\	e-	4b\	e-	4bb\	e-	.	.
(8G\L	.	.	8g/L	.	8gg\L	.	8G\L	-rat	8g\L	-rat	8g\L	-rat	8gg\L	-rat	.	.
8E\J)	.	.	8e/J	.	8ee\J	.	8E\J	.	8e\J	.	8e\J	.	8ee\J	.	.	.
!	!	!	!LO:LB:g=original	!	!LO:LB:g=original	!	!	!	!	!	!LO:LB:g=original	!	!	!	!	!
=80	=80	=80	=80	=80	=80	=80	=80	=80	=80	=80	=80	=80	=80	=80	=80	=80
4D#X\|	.	.	4d#X/	.	4dd#X\	.	4D#X\	in	4d#X\	in	4d#X\	in	4dd#X\	in	1ryy	1ryy
(8D#\L	.	.	8d#/L	.	8dd#\L	.	8D#\L	prin-	8d#\L	prin-	8d#\L	prin-	8dd#\L	prin-	.	.
8F#\J)	.	.	8f#/J	.	8ff#\J	.	8F#\J	.	8f#\J	.	8f#\J	.	8ff#\J	.	.	.
4BB/|	.	.	4B/	.	4b\	.	4BB/	-ci-	4B\	-ci-	4B/	-ci-	4b\	-ci-	.	.
(8BB/L	.	.	8B/L	.	8b\L	.	8BB/L	-pi-	8B\L	-pi-	8B/L	-pi-	8b\L	-pi-	.	.
!	!	!	!	!	!	!	!LO:SIC:o=8C/J	!	!	!	!	!	!	!	!	!
8D#/J)	.	.	8d#/J	.	8dd#\J	.	8D#J	.	8d#\J	.	8d#/J	.	8dd#\J	.	.	.
!	!	!	!	!	!	!	!	!	!	!	!	!	!LO:LB:g=original	!	!	!
=81	=81	=81	=81	=81	=81	=81	=81	=81	=81	=81	=81	=81	=81	=81	=81	=81
(8E\L	.	.	8e/L	.	8ee\L	.	8E\L	-o	8e\L	-o	8e\L	-o	8ee\L	-o	1ryy	1ryy
8F#\)	.	.	8f#/	.	8ff#\	.	8F#\J	.	8f#\J	.	8f#\J	.	8ff#\J	.	.	.
(8G\	.	.	8g/	.	8gg\	.	8G\L	et	8g\L	et	8g\L	et	8gg\L	et	.	.
8A\J)	.	.	8a/J	.	8aa\J	.	8A\J	.	8a\J	.	8a\J	.	8aa\J	.	.	.
4B\|	.	.	4b/	.	4bb\	.	4B\	nunc	4b\	nunc	4b\	nunc	4bb\	nunc	.	.
(8G\L	.	.	8g/L	.	8gg\L	.	8G\L	et	8g\L	et	8g\L	et	8gg\L	et	.	.
8E\J)	.	.	8e/J	.	8ee\J	.	8E\J	.	8e\J	.	8e\J	.	8ee\J	.	.	.
=82	=82	=82	=82	=82	=82	=82	=82	=82	=82	=82	=82	=82	=82	=82	=82	=82
!	!	!	!	!	!LO:SIC:v:o=4dd\	!	!LO:SIC:o=4D#X\	!LO:MO:mod=sem-	!LO:SIC:o=4d#X\	!LO:MO:mod=sem-	!	!LO:MO:mod=sem-	!	!LO:MO:mod=sem-	!	!
4D#X\|	.	.	4d#X/	.	4dd#\	.	(4D#	Sem-	(4d#	Sem-	(4d#X\	Sem-	(4dd#X\	Sem-	1ryy	1ryy
!	!	!	!	!	!	!	!LO:SIC:o=4F#\	!LO:MO:mod=.	!LO:SIC:o=4f#\	!	!	!	!	!	!	!
4F#\|	.	.	4f#/	.	4ff#\	.	4F#)	-per	4f#)	.	4f#\)	.	4ff#\)	.	.	.
!	!	!	!	!	!	!	!LO:LB:g=original	!LO:MO:null:mod=-per	!	!	!	!	!	!	!	!
2BB/	.	.	4B/	.	4b\	.	2BB/	.	2B\	-per	2B/	-per	2b\	-per	.	.
.	.	.	8c/L	.	8cc\L	.	.	.	.	.	.	.	.	.	.	.
!	!	!	!	!	!LO:SIC:o=8dd\J	!	!	!	!	!	!	!	!	!	!	!
.	.	.	8d#/J	.	8dd#J	.	.	.	.	.	.	.	.	.	.	.
=83	=83	=83	=83	=83	=83	=83	=83	=83	=83	=83	=83	=83	=83	=83	=83	=83
[<1E	.	.	8e/L	.	8ee\L	.	2E\	et	2B\	et	2g\	et	2ee\	et	1ryy	1ryy
.	.	.	8f#/	.	8ff#\	.	.	.	.	.	.	.	.	.	.	.
.	.	.	8g/	.	8gg\	.	.	.	.	.	.	.	.	.	.	.
.	.	.	8f#/J	.	8ff#\J	.	.	.	.	.	.	.	.	.	.	.
.	.	.	4e/	.	4ee\	.	2E\	in	2B\	in	2g\	in	2ee\	in	.	.
.	.	.	8B/L	.	8b\L	.	.	.	.	.	.	.	.	.	.	.
.	.	.	8g/J	.	8gg\J	.	.	.	.	.	.	.	.	.	.	.
!LO:LB:g=original	!	!	!	!	!	!	!	!	!	!	!	!	!	!	!	!
=84	=84	=84	=84	=84	=84	=84	=84	=84	=84	=84	=84	=84	=84	=84	=84	=84
!	!	!	!	!	!	!	!	!LO:MO:mod=sae-	!	!LO:MO:mod=sae-	!	!LO:MO:mod=sae-	!	!LO:MO:mod=sae-	!	!
1E_<	.	.	8e/L	.	8ee\L	.	2E\	Sae-	2B\	Sae-	2g\	Sae-	2ee\	Sae-	1ryy	1ryy
.	.	.	8f#/	.	8ff#\	.	.	.	.	.	.	.	.	.	.	.
.	.	.	8g/	.	8gg\	.	.	.	.	.	.	.	.	.	.	.
.	.	.	8e/J	.	8ee\J	.	.	.	.	.	.	.	.	.	.	.
.	.	.	4b/	.	4bb\	.	4E\	-cu-	4B\	-cu-	4g\	-cu-	4ee\	-cu-	.	.
.	.	.	8b/L	.	8bb\L	.	4E\	-la	4B\	-la	4g\	-la	4ee\	-la	.	.
.	.	.	8g/J	.	8gg\J	.	.	.	.	.	.	.	.	.	.	.
!	!	!	!	!	!	!	!	!	!LO:LB:g=original	!	!	!	!	!	!	!
=85	=85	=85	=85	=85	=85	=85	=85	=85	=85	=85	=85	=85	=85	=85	=85	=85
!	!	!	!	!	!	!	!	!LO:MO:mod=sae-	!	!LO:MO:mod=sae-	!	!LO:MO:mod=sae-	!	!LO:MO:mod=sae-	!	!
1E_<	.	.	8e/L	.	8ee\L	.	2E\	Sae-	2B\	Sae-	2g\	Sae-	2ee\	Sae-	1ryy	1ryy
.	.	.	8f#/	.	8ff#\	.	.	.	.	.	.	.	.	.	.	.
.	.	.	8g/	.	8gg\	.	.	.	.	.	.	.	.	.	.	.
.	.	.	8f#/J	.	8ff#\J	.	.	.	.	.	.	.	.	.	.	.
.	.	.	4e/	.	4ee\	.	2E\	-cu-	2B\	-cu-	2g\	-cu-	2ee\	-cu-	.	.
!	!	!	!	!	!LO:LB:g=original	!	!	!	!	!	!	!	!	!	!	!
.	.	.	8B/L	.	8b\L	.	.	.	.	.	.	.	.	.	.	.
.	.	.	8g/J	.	8gg\J	.	.	.	.	.	.	.	.	.	.	.
!	!	!	!	!	!	!	!	!	!	!	!LO:LB:g=original	!	!LO:LB:g=original	!	!	!
=86	=86	=86	=86	=86	=86	=86	=86	=86	=86	=86	=86	=86	=86	=86	=86	=86
1E_<	.	.	8e/L	.	8ee\L	.	2E\	-lo-	2B\	-lo-	2g\	-lo-	2ee\	-lo-	1ryy	1ryy
.	.	.	8f#/	.	8ff#\	.	.	.	.	.	.	.	.	.	.	.
.	.	.	8g/	.	8gg\	.	.	.	.	.	.	.	.	.	.	.
.	.	.	8e/J	.	8ee\J	.	.	.	.	.	.	.	.	.	.	.
!	!	!	!LO:LB:g=original	!	!	!	!	!	!	!	!	!	!	!	!	!
.	.	.	4B/	.	4b\	.	2E\	-rum	2B\	-rum	2g\	-rum	2ee\	-rum	.	.
.	.	.	4B/	.	4b\	.	.	.	.	.	.	.	.	.	.	.
=87	=87	=87	=87	=87	=87	=87	=87	=87	=87	=87	=87	=87	=87	=87	=87	=87
1E_<	.	.	4e/	.	4ee\	.	1E	a-	1B	a-	1g	a-	1ee	a-	1ryy	1ryy
.	.	.	8f#/L	.	8ff#\L	.	.	.	.	.	.	.	.	.	.	.
.	.	.	8g/J	.	8gg\J	.	.	.	.	.	.	.	.	.	.	.
.	.	.	8e/L	.	8ee\L	.	.	.	.	.	.	.	.	.	.	.
.	.	.	8g/	.	8gg\	.	.	.	.	.	.	.	.	.	.	.
.	.	.	8b/	.	8bb\	.	.	.	.	.	.	.	.	.	.	.
.	.	.	8g/J	.	8gg\J	.	.	.	.	.	.	.	.	.	.	.
=88	=88	=88	=88	=88	=88	=88	=88	=88	=88	=88	=88	=88	=88	=88	=88	=88
1E_<	.	.	4e/	.	4ee\	.	1E	.	1B	.	1g	.	1ee	.	1ryy	1ryy
.	.	.	8f#/L	.	8ff#\L	.	.	.	.	.	.	.	.	.	.	.
.	.	.	8g/J	.	8gg\J	.	.	.	.	.	.	.	.	.	.	.
.	.	.	8e/L	.	8ee\L	.	.	.	.	.	.	.	.	.	.	.
!	!	!	!LO:SIC:o=8d/	!	!	!	!	!	!	!	!	!	!	!	!	!
.	.	.	8d#	.	8dd#X\	.	.	.	.	.	.	.	.	.	.	.
.	.	.	8c/	.	8cc\	.	.	.	.	.	.	.	.	.	.	.
.	.	.	8B/J	.	8b\J	.	.	.	.	.	.	.	.	.	.	.
=89	=89	=89	=89	=89	=89	=89	=89	=89	=89	=89	=89	=89	=89	=89	=89	=89
1E_<	.	.	8e/L	.	8ee\L	.	1E	.	1B	.	1g	.	1ee	.	1ryy	1ryy
.	.	.	8f#/	.	8ff#\	.	.	.	.	.	.	.	.	.	.	.
.	.	.	8g/	.	8gg\	.	.	.	.	.	.	.	.	.	.	.
.	.	.	8f#/J	.	8ff#\J	.	.	.	.	.	.	.	.	.	.	.
.	.	.	4e/	.	4ee\	.	.	.	.	.	.	.	.	.	.	.
.	.	.	8b/L	.	8bb\L	.	.	.	.	.	.	.	.	.	.	.
.	.	.	8g/J	.	8gg\J	.	.	.	.	.	.	.	.	.	.	.
=90	=90	=90	=90	=90	=90	=90	=90	=90	=90	=90	=90	=90	=90	=90	=90	=90
!	!	!	!	!	!	!	!	!LO:MO:mod=-men.	!	!LO:MO:mod=-men.	!	!LO:MO:mod=-men.	!	!LO:MO:mod=-men.	!	!
1E]	.	.	4e/	.	4ee\	.	1E	-men	1B	-men	1g	-men	1ee	-men	1ryy	1ryy
.	.	.	8f#/L	.	8ff#\L	.	.	.	.	.	.	.	.	.	.	.
.	.	.	8g/J	.	8gg\J	.	.	.	.	.	.	.	.	.	.	.
.	.	.	4e/	.	4ee\	.	.	.	.	.	.	.	.	.	.	.
.	.	.	4r	.	4r	.	.	.	.	.	.	.	.	.	.	.
==	==	==	==	==	==	==	==	==	==	==	==	==	==	==	==	==
*-	*-	*-	*-	*-	*-	*-	*-	*-	*-	*-	*-	*-	*-	*-	*-	*-
!!!system-decoration: [(g1)][(g2)][(g3)]<s9>
!!!RDF**kern: > = above
!!!RDF**kern: < = below
!!!RDF**kern: | = vertical stroke
!!!filter-modern: shed -k -e "s/([^a-gA-Gn#X-])[<>]/$1/g" | shed -X dynam -e "s/:a/:A/LX" | shed -e "s/TX(.*):t=P:/tx$1:t=P:/LG" | shed -e "s/:rj/:RJ/L" | sic -sq | modori -m | autostem -r | tie -s | humtr -p | shed -e "s/yy//"
!!!ENC: Andrzej Gręziak
!!!END: 2021-11-23
!!!EED: Marta Lawrence
!!!EEV: 2021-12-02
!!!ENC-modern: Andrzej Kubiczek
!!!END-modern: 2022-07-26
